/PROG cub_1
/ATTR
OWNER       = MNEDITOR;
CREATE      = DATE 100-11-20  TIME 09:43:21;
MODIFIED    = DATE 100-12-05  TIME 05:26:29;
LINE_COUNT = 999;
PROTECT     = READ_WRITE;
TCD:  STACK_SIZE    = 0,
      TASK_PRIORITY = 50,
      TIME_SLICE    = 0,
      BUSY_LAMP_OFF = 0,
      ABORT_REQUEST = 0,
      PAUSE_REQUEST = 0;
DEFAULT_GROUP   = 1,1,*,*,*;
CONTROL_CODE    = 00000000 00000000;
/MN
1: L P[1] 60cm/min CNT100 COORD PTH  ;
2: L P[2] 60cm/min CNT100 COORD PTH  ;
3: L P[3] 60cm/min CNT100 COORD PTH  ;
4: L P[4] 60cm/min CNT100 COORD PTH  ;
5: L P[5] 60cm/min CNT100 COORD PTH  ;
6: L P[6] 60cm/min CNT100 COORD PTH  ;
7: L P[7] 60cm/min CNT100 COORD PTH  ;
8: L P[8] 60cm/min CNT100 COORD PTH  ;
9: L P[9] 60cm/min CNT100 COORD PTH  ;
10: L P[10] 60cm/min CNT100 COORD PTH  ;
11: L P[11] 60cm/min CNT100 COORD PTH  ;
12: L P[12] 60cm/min CNT100 COORD PTH  ;
13: L P[13] 60cm/min CNT100 COORD PTH  ;
14: L P[14] 60cm/min CNT100 COORD PTH  ;
15: L P[15] 60cm/min CNT100 COORD PTH  ;
16: L P[16] 60cm/min CNT100 COORD PTH  ;
17: L P[17] 60cm/min CNT100 COORD PTH  ;
18: L P[18] 60cm/min CNT100 COORD PTH  ;
19: L P[19] 60cm/min CNT100 COORD PTH  ;
20: L P[20] 60cm/min CNT100 COORD PTH  ;
21: L P[21] 60cm/min CNT100 COORD PTH  ;
22: L P[22] 60cm/min CNT100 COORD PTH  ;
23: L P[23] 60cm/min CNT100 COORD PTH  ;
24: L P[24] 60cm/min CNT100 COORD PTH  ;
25: L P[25] 60cm/min CNT100 COORD PTH  ;
26: L P[26] 60cm/min CNT100 COORD PTH  ;
27: L P[27] 60cm/min CNT100 COORD PTH  ;
28: L P[28] 60cm/min CNT100 COORD PTH  ;
29: L P[29] 60cm/min CNT100 COORD PTH  ;
30: L P[30] 60cm/min CNT100 COORD PTH  ;
31: L P[31] 60cm/min CNT100 COORD PTH  ;
32: L P[32] 60cm/min CNT100 COORD PTH  ;
33: L P[33] 60cm/min CNT100 COORD PTH  ;
34: L P[34] 60cm/min CNT100 COORD PTH  ;
35: L P[35] 60cm/min CNT100 COORD PTH  ;
36: L P[36] 60cm/min CNT100 COORD PTH  ;
37: L P[37] 60cm/min CNT100 COORD PTH  ;
38: L P[38] 60cm/min CNT100 COORD PTH  ;
39: L P[39] 60cm/min CNT100 COORD PTH  ;
40: L P[40] 60cm/min CNT100 COORD PTH  ;
41: L P[41] 60cm/min CNT100 COORD PTH  ;
42: L P[42] 60cm/min CNT100 COORD PTH  ;
43: L P[43] 60cm/min CNT100 COORD PTH  ;
44: L P[44] 60cm/min CNT100 COORD PTH  ;
45: L P[45] 60cm/min CNT100 COORD PTH  ;
46: L P[46] 60cm/min CNT100 COORD PTH  ;
47: L P[47] 60cm/min CNT100 COORD PTH  ;
48: L P[48] 60cm/min CNT100 COORD PTH  ;
49: L P[49] 60cm/min CNT100 COORD PTH  ;
50: L P[50] 60cm/min CNT100 COORD PTH  ;
51: L P[51] 60cm/min CNT100 COORD PTH  ;
52: L P[52] 60cm/min CNT100 COORD PTH  ;
53: L P[53] 60cm/min CNT100 COORD PTH  ;
54: L P[54] 60cm/min CNT100 COORD PTH  ;
55: L P[55] 60cm/min CNT100 COORD PTH  ;
56: L P[56] 60cm/min CNT100 COORD PTH  ;
57: L P[57] 60cm/min CNT100 COORD PTH  ;
: Arc End[1];
58: L P[58] 240cm/min CNT100 COORD  ;
59: L P[59] 240cm/min CNT100 COORD  ;
: Arc Start[1];
60: L P[60] 30cm/min CNT100 COORD PTH  ;
61: L P[61] 30cm/min CNT100 COORD PTH  ;
62: L P[62] 30cm/min CNT100 COORD PTH  ;
63: L P[63] 30cm/min CNT100 COORD PTH  ;
: Arc End[1];
64: L P[64] 240cm/min CNT100 COORD  ;
: Arc Start[1];
65: L P[65] 60cm/min CNT100 COORD PTH  ;
66: L P[66] 60cm/min CNT100 COORD PTH  ;
67: L P[67] 60cm/min CNT100 COORD PTH  ;
68: L P[68] 60cm/min CNT100 COORD PTH  ;
69: L P[69] 60cm/min CNT100 COORD PTH  ;
70: L P[70] 60cm/min CNT100 COORD PTH  ;
71: L P[71] 60cm/min CNT100 COORD PTH  ;
72: L P[72] 60cm/min CNT100 COORD PTH  ;
73: L P[73] 60cm/min CNT100 COORD PTH  ;
74: L P[74] 60cm/min CNT100 COORD PTH  ;
75: L P[75] 60cm/min CNT100 COORD PTH  ;
76: L P[76] 60cm/min CNT100 COORD PTH  ;
77: L P[77] 60cm/min CNT100 COORD PTH  ;
78: L P[78] 60cm/min CNT100 COORD PTH  ;
79: L P[79] 60cm/min CNT100 COORD PTH  ;
80: L P[80] 60cm/min CNT100 COORD PTH  ;
81: L P[81] 60cm/min CNT100 COORD PTH  ;
82: L P[82] 60cm/min CNT100 COORD PTH  ;
83: L P[83] 60cm/min CNT100 COORD PTH  ;
84: L P[84] 60cm/min CNT100 COORD PTH  ;
85: L P[85] 60cm/min CNT100 COORD PTH  ;
86: L P[86] 60cm/min CNT100 COORD PTH  ;
87: L P[87] 60cm/min CNT100 COORD PTH  ;
88: L P[88] 60cm/min CNT100 COORD PTH  ;
89: L P[89] 60cm/min CNT100 COORD PTH  ;
90: L P[90] 60cm/min CNT100 COORD PTH  ;
91: L P[91] 60cm/min CNT100 COORD PTH  ;
92: L P[92] 60cm/min CNT100 COORD PTH  ;
93: L P[93] 60cm/min CNT100 COORD PTH  ;
94: L P[94] 60cm/min CNT100 COORD PTH  ;
95: L P[95] 60cm/min CNT100 COORD PTH  ;
96: L P[96] 60cm/min CNT100 COORD PTH  ;
97: L P[97] 60cm/min CNT100 COORD PTH  ;
98: L P[98] 60cm/min CNT100 COORD PTH  ;
99: L P[99] 60cm/min CNT100 COORD PTH  ;
100: L P[100] 60cm/min CNT100 COORD PTH  ;
101: L P[101] 60cm/min CNT100 COORD PTH  ;
102: L P[102] 60cm/min CNT100 COORD PTH  ;
103: L P[103] 60cm/min CNT100 COORD PTH  ;
104: L P[104] 60cm/min CNT100 COORD PTH  ;
105: L P[105] 60cm/min CNT100 COORD PTH  ;
106: L P[106] 60cm/min CNT100 COORD PTH  ;
107: L P[107] 60cm/min CNT100 COORD PTH  ;
108: L P[108] 60cm/min CNT100 COORD PTH  ;
109: L P[109] 60cm/min CNT100 COORD PTH  ;
110: L P[110] 60cm/min CNT100 COORD PTH  ;
111: L P[111] 60cm/min CNT100 COORD PTH  ;
112: L P[112] 60cm/min CNT100 COORD PTH  ;
113: L P[113] 60cm/min CNT100 COORD PTH  ;
114: L P[114] 60cm/min CNT100 COORD PTH  ;
115: L P[115] 60cm/min CNT100 COORD PTH  ;
116: L P[116] 60cm/min CNT100 COORD PTH  ;
117: L P[117] 60cm/min CNT100 COORD PTH  ;
118: L P[118] 60cm/min CNT100 COORD PTH  ;
119: L P[119] 60cm/min CNT100 COORD PTH  ;
120: L P[120] 60cm/min CNT100 COORD PTH  ;
121: L P[121] 60cm/min CNT100 COORD PTH  ;
122: L P[122] 60cm/min CNT100 COORD PTH  ;
123: L P[123] 60cm/min CNT100 COORD PTH  ;
124: L P[124] 60cm/min CNT100 COORD PTH  ;
125: L P[125] 60cm/min CNT100 COORD PTH  ;
126: L P[126] 60cm/min CNT100 COORD PTH  ;
127: L P[127] 60cm/min CNT100 COORD PTH  ;
128: L P[128] 60cm/min CNT100 COORD PTH  ;
129: L P[129] 60cm/min CNT100 COORD PTH  ;
130: L P[130] 60cm/min CNT100 COORD PTH  ;
131: L P[131] 60cm/min CNT100 COORD PTH  ;
132: L P[132] 60cm/min CNT100 COORD PTH  ;
133: L P[133] 60cm/min CNT100 COORD PTH  ;
134: L P[134] 60cm/min CNT100 COORD PTH  ;
135: L P[135] 60cm/min CNT100 COORD PTH  ;
136: L P[136] 60cm/min CNT100 COORD PTH  ;
137: L P[137] 60cm/min CNT100 COORD PTH  ;
138: L P[138] 60cm/min CNT100 COORD PTH  ;
139: L P[139] 60cm/min CNT100 COORD PTH  ;
140: L P[140] 60cm/min CNT100 COORD PTH  ;
141: L P[141] 60cm/min CNT100 COORD PTH  ;
142: L P[142] 60cm/min CNT100 COORD PTH  ;
143: L P[143] 60cm/min CNT100 COORD PTH  ;
144: L P[144] 60cm/min CNT100 COORD PTH  ;
145: L P[145] 60cm/min CNT100 COORD PTH  ;
: Arc End[1];
146: L P[146] 240cm/min CNT100 COORD  ;
147: L P[147] 240cm/min CNT100 COORD  ;
: Arc Start[1];
148: L P[148] 30cm/min CNT100 COORD PTH  ;
149: L P[149] 30cm/min CNT100 COORD PTH  ;
150: L P[150] 30cm/min CNT100 COORD PTH  ;
151: L P[151] 30cm/min CNT100 COORD PTH  ;
: Arc End[1];
152: L P[152] 240cm/min CNT100 COORD  ;
: Arc Start[1];
153: L P[153] 60cm/min CNT100 COORD PTH  ;
154: L P[154] 60cm/min CNT100 COORD PTH  ;
155: L P[155] 60cm/min CNT100 COORD PTH  ;
156: L P[156] 60cm/min CNT100 COORD PTH  ;
157: L P[157] 60cm/min CNT100 COORD PTH  ;
158: L P[158] 60cm/min CNT100 COORD PTH  ;
159: L P[159] 60cm/min CNT100 COORD PTH  ;
160: L P[160] 60cm/min CNT100 COORD PTH  ;
161: L P[161] 60cm/min CNT100 COORD PTH  ;
162: L P[162] 60cm/min CNT100 COORD PTH  ;
163: L P[163] 60cm/min CNT100 COORD PTH  ;
164: L P[164] 60cm/min CNT100 COORD PTH  ;
165: L P[165] 60cm/min CNT100 COORD PTH  ;
166: L P[166] 60cm/min CNT100 COORD PTH  ;
167: L P[167] 60cm/min CNT100 COORD PTH  ;
168: L P[168] 60cm/min CNT100 COORD PTH  ;
169: L P[169] 60cm/min CNT100 COORD PTH  ;
170: L P[170] 60cm/min CNT100 COORD PTH  ;
171: L P[171] 60cm/min CNT100 COORD PTH  ;
172: L P[172] 60cm/min CNT100 COORD PTH  ;
173: L P[173] 60cm/min CNT100 COORD PTH  ;
174: L P[174] 60cm/min CNT100 COORD PTH  ;
175: L P[175] 60cm/min CNT100 COORD PTH  ;
176: L P[176] 60cm/min CNT100 COORD PTH  ;
177: L P[177] 60cm/min CNT100 COORD PTH  ;
178: L P[178] 60cm/min CNT100 COORD PTH  ;
179: L P[179] 60cm/min CNT100 COORD PTH  ;
180: L P[180] 60cm/min CNT100 COORD PTH  ;
181: L P[181] 60cm/min CNT100 COORD PTH  ;
182: L P[182] 60cm/min CNT100 COORD PTH  ;
183: L P[183] 60cm/min CNT100 COORD PTH  ;
184: L P[184] 60cm/min CNT100 COORD PTH  ;
185: L P[185] 60cm/min CNT100 COORD PTH  ;
186: L P[186] 60cm/min CNT100 COORD PTH  ;
187: L P[187] 60cm/min CNT100 COORD PTH  ;
188: L P[188] 60cm/min CNT100 COORD PTH  ;
189: L P[189] 60cm/min CNT100 COORD PTH  ;
190: L P[190] 60cm/min CNT100 COORD PTH  ;
191: L P[191] 60cm/min CNT100 COORD PTH  ;
192: L P[192] 60cm/min CNT100 COORD PTH  ;
193: L P[193] 60cm/min CNT100 COORD PTH  ;
194: L P[194] 60cm/min CNT100 COORD PTH  ;
195: L P[195] 60cm/min CNT100 COORD PTH  ;
196: L P[196] 60cm/min CNT100 COORD PTH  ;
197: L P[197] 60cm/min CNT100 COORD PTH  ;
198: L P[198] 60cm/min CNT100 COORD PTH  ;
199: L P[199] 60cm/min CNT100 COORD PTH  ;
200: L P[200] 60cm/min CNT100 COORD PTH  ;
201: L P[201] 60cm/min CNT100 COORD PTH  ;
202: L P[202] 60cm/min CNT100 COORD PTH  ;
203: L P[203] 60cm/min CNT100 COORD PTH  ;
204: L P[204] 60cm/min CNT100 COORD PTH  ;
205: L P[205] 60cm/min CNT100 COORD PTH  ;
206: L P[206] 60cm/min CNT100 COORD PTH  ;
207: L P[207] 60cm/min CNT100 COORD PTH  ;
208: L P[208] 60cm/min CNT100 COORD PTH  ;
209: L P[209] 60cm/min CNT100 COORD PTH  ;
210: L P[210] 60cm/min CNT100 COORD PTH  ;
211: L P[211] 60cm/min CNT100 COORD PTH  ;
212: L P[212] 60cm/min CNT100 COORD PTH  ;
213: L P[213] 60cm/min CNT100 COORD PTH  ;
214: L P[214] 60cm/min CNT100 COORD PTH  ;
215: L P[215] 60cm/min CNT100 COORD PTH  ;
216: L P[216] 60cm/min CNT100 COORD PTH  ;
217: L P[217] 60cm/min CNT100 COORD PTH  ;
218: L P[218] 60cm/min CNT100 COORD PTH  ;
219: L P[219] 60cm/min CNT100 COORD PTH  ;
220: L P[220] 60cm/min CNT100 COORD PTH  ;
221: L P[221] 60cm/min CNT100 COORD PTH  ;
222: L P[222] 60cm/min CNT100 COORD PTH  ;
223: L P[223] 60cm/min CNT100 COORD PTH  ;
224: L P[224] 60cm/min CNT100 COORD PTH  ;
225: L P[225] 60cm/min CNT100 COORD PTH  ;
226: L P[226] 60cm/min CNT100 COORD PTH  ;
227: L P[227] 60cm/min CNT100 COORD PTH  ;
228: L P[228] 60cm/min CNT100 COORD PTH  ;
229: L P[229] 60cm/min CNT100 COORD PTH  ;
230: L P[230] 60cm/min CNT100 COORD PTH  ;
231: L P[231] 60cm/min CNT100 COORD PTH  ;
232: L P[232] 60cm/min CNT100 COORD PTH  ;
233: L P[233] 60cm/min CNT100 COORD PTH  ;
: Arc End[1];
234: L P[234] 240cm/min CNT100 COORD  ;
235: L P[235] 240cm/min CNT100 COORD  ;
: Arc Start[1];
236: L P[236] 30cm/min CNT100 COORD PTH  ;
237: L P[237] 30cm/min CNT100 COORD PTH  ;
238: L P[238] 30cm/min CNT100 COORD PTH  ;
239: L P[239] 30cm/min CNT100 COORD PTH  ;
: Arc End[1];
240: L P[240] 240cm/min CNT100 COORD  ;
: Arc Start[1];
241: L P[241] 60cm/min CNT100 COORD PTH  ;
242: L P[242] 60cm/min CNT100 COORD PTH  ;
243: L P[243] 60cm/min CNT100 COORD PTH  ;
244: L P[244] 60cm/min CNT100 COORD PTH  ;
245: L P[245] 60cm/min CNT100 COORD PTH  ;
246: L P[246] 60cm/min CNT100 COORD PTH  ;
247: L P[247] 60cm/min CNT100 COORD PTH  ;
248: L P[248] 60cm/min CNT100 COORD PTH  ;
249: L P[249] 60cm/min CNT100 COORD PTH  ;
250: L P[250] 60cm/min CNT100 COORD PTH  ;
251: L P[251] 60cm/min CNT100 COORD PTH  ;
252: L P[252] 60cm/min CNT100 COORD PTH  ;
253: L P[253] 60cm/min CNT100 COORD PTH  ;
254: L P[254] 60cm/min CNT100 COORD PTH  ;
255: L P[255] 60cm/min CNT100 COORD PTH  ;
256: L P[256] 60cm/min CNT100 COORD PTH  ;
257: L P[257] 60cm/min CNT100 COORD PTH  ;
258: L P[258] 60cm/min CNT100 COORD PTH  ;
259: L P[259] 60cm/min CNT100 COORD PTH  ;
260: L P[260] 60cm/min CNT100 COORD PTH  ;
261: L P[261] 60cm/min CNT100 COORD PTH  ;
262: L P[262] 60cm/min CNT100 COORD PTH  ;
263: L P[263] 60cm/min CNT100 COORD PTH  ;
264: L P[264] 60cm/min CNT100 COORD PTH  ;
265: L P[265] 60cm/min CNT100 COORD PTH  ;
266: L P[266] 60cm/min CNT100 COORD PTH  ;
267: L P[267] 60cm/min CNT100 COORD PTH  ;
268: L P[268] 60cm/min CNT100 COORD PTH  ;
269: L P[269] 60cm/min CNT100 COORD PTH  ;
270: L P[270] 60cm/min CNT100 COORD PTH  ;
271: L P[271] 60cm/min CNT100 COORD PTH  ;
272: L P[272] 60cm/min CNT100 COORD PTH  ;
273: L P[273] 60cm/min CNT100 COORD PTH  ;
274: L P[274] 60cm/min CNT100 COORD PTH  ;
275: L P[275] 60cm/min CNT100 COORD PTH  ;
276: L P[276] 60cm/min CNT100 COORD PTH  ;
277: L P[277] 60cm/min CNT100 COORD PTH  ;
278: L P[278] 60cm/min CNT100 COORD PTH  ;
279: L P[279] 60cm/min CNT100 COORD PTH  ;
280: L P[280] 60cm/min CNT100 COORD PTH  ;
281: L P[281] 60cm/min CNT100 COORD PTH  ;
282: L P[282] 60cm/min CNT100 COORD PTH  ;
283: L P[283] 60cm/min CNT100 COORD PTH  ;
284: L P[284] 60cm/min CNT100 COORD PTH  ;
285: L P[285] 60cm/min CNT100 COORD PTH  ;
286: L P[286] 60cm/min CNT100 COORD PTH  ;
287: L P[287] 60cm/min CNT100 COORD PTH  ;
288: L P[288] 60cm/min CNT100 COORD PTH  ;
289: L P[289] 60cm/min CNT100 COORD PTH  ;
290: L P[290] 60cm/min CNT100 COORD PTH  ;
291: L P[291] 60cm/min CNT100 COORD PTH  ;
292: L P[292] 60cm/min CNT100 COORD PTH  ;
293: L P[293] 60cm/min CNT100 COORD PTH  ;
294: L P[294] 60cm/min CNT100 COORD PTH  ;
295: L P[295] 60cm/min CNT100 COORD PTH  ;
296: L P[296] 60cm/min CNT100 COORD PTH  ;
297: L P[297] 60cm/min CNT100 COORD PTH  ;
298: L P[298] 60cm/min CNT100 COORD PTH  ;
299: L P[299] 60cm/min CNT100 COORD PTH  ;
300: L P[300] 60cm/min CNT100 COORD PTH  ;
301: L P[301] 60cm/min CNT100 COORD PTH  ;
302: L P[302] 60cm/min CNT100 COORD PTH  ;
303: L P[303] 60cm/min CNT100 COORD PTH  ;
304: L P[304] 60cm/min CNT100 COORD PTH  ;
305: L P[305] 60cm/min CNT100 COORD PTH  ;
306: L P[306] 60cm/min CNT100 COORD PTH  ;
307: L P[307] 60cm/min CNT100 COORD PTH  ;
308: L P[308] 60cm/min CNT100 COORD PTH  ;
309: L P[309] 60cm/min CNT100 COORD PTH  ;
310: L P[310] 60cm/min CNT100 COORD PTH  ;
311: L P[311] 60cm/min CNT100 COORD PTH  ;
312: L P[312] 60cm/min CNT100 COORD PTH  ;
313: L P[313] 60cm/min CNT100 COORD PTH  ;
314: L P[314] 60cm/min CNT100 COORD PTH  ;
315: L P[315] 60cm/min CNT100 COORD PTH  ;
316: L P[316] 60cm/min CNT100 COORD PTH  ;
317: L P[317] 60cm/min CNT100 COORD PTH  ;
318: L P[318] 60cm/min CNT100 COORD PTH  ;
319: L P[319] 60cm/min CNT100 COORD PTH  ;
320: L P[320] 60cm/min CNT100 COORD PTH  ;
321: L P[321] 60cm/min CNT100 COORD PTH  ;
: Arc End[1];
322: L P[322] 240cm/min CNT100 COORD  ;
323: L P[323] 240cm/min CNT100 COORD  ;
: Arc Start[1];
324: L P[324] 30cm/min CNT100 COORD PTH  ;
325: L P[325] 30cm/min CNT100 COORD PTH  ;
326: L P[326] 30cm/min CNT100 COORD PTH  ;
327: L P[327] 30cm/min CNT100 COORD PTH  ;
: Arc End[1];
328: L P[328] 240cm/min CNT100 COORD  ;
: Arc Start[1];
329: L P[329] 60cm/min CNT100 COORD PTH  ;
330: L P[330] 60cm/min CNT100 COORD PTH  ;
331: L P[331] 60cm/min CNT100 COORD PTH  ;
332: L P[332] 60cm/min CNT100 COORD PTH  ;
333: L P[333] 60cm/min CNT100 COORD PTH  ;
334: L P[334] 60cm/min CNT100 COORD PTH  ;
335: L P[335] 60cm/min CNT100 COORD PTH  ;
336: L P[336] 60cm/min CNT100 COORD PTH  ;
337: L P[337] 60cm/min CNT100 COORD PTH  ;
338: L P[338] 60cm/min CNT100 COORD PTH  ;
339: L P[339] 60cm/min CNT100 COORD PTH  ;
340: L P[340] 60cm/min CNT100 COORD PTH  ;
341: L P[341] 60cm/min CNT100 COORD PTH  ;
342: L P[342] 60cm/min CNT100 COORD PTH  ;
343: L P[343] 60cm/min CNT100 COORD PTH  ;
344: L P[344] 60cm/min CNT100 COORD PTH  ;
345: L P[345] 60cm/min CNT100 COORD PTH  ;
346: L P[346] 60cm/min CNT100 COORD PTH  ;
347: L P[347] 60cm/min CNT100 COORD PTH  ;
348: L P[348] 60cm/min CNT100 COORD PTH  ;
349: L P[349] 60cm/min CNT100 COORD PTH  ;
350: L P[350] 60cm/min CNT100 COORD PTH  ;
351: L P[351] 60cm/min CNT100 COORD PTH  ;
352: L P[352] 60cm/min CNT100 COORD PTH  ;
353: L P[353] 60cm/min CNT100 COORD PTH  ;
354: L P[354] 60cm/min CNT100 COORD PTH  ;
355: L P[355] 60cm/min CNT100 COORD PTH  ;
356: L P[356] 60cm/min CNT100 COORD PTH  ;
357: L P[357] 60cm/min CNT100 COORD PTH  ;
358: L P[358] 60cm/min CNT100 COORD PTH  ;
359: L P[359] 60cm/min CNT100 COORD PTH  ;
360: L P[360] 60cm/min CNT100 COORD PTH  ;
361: L P[361] 60cm/min CNT100 COORD PTH  ;
362: L P[362] 60cm/min CNT100 COORD PTH  ;
363: L P[363] 60cm/min CNT100 COORD PTH  ;
364: L P[364] 60cm/min CNT100 COORD PTH  ;
365: L P[365] 60cm/min CNT100 COORD PTH  ;
366: L P[366] 60cm/min CNT100 COORD PTH  ;
367: L P[367] 60cm/min CNT100 COORD PTH  ;
368: L P[368] 60cm/min CNT100 COORD PTH  ;
369: L P[369] 60cm/min CNT100 COORD PTH  ;
370: L P[370] 60cm/min CNT100 COORD PTH  ;
371: L P[371] 60cm/min CNT100 COORD PTH  ;
372: L P[372] 60cm/min CNT100 COORD PTH  ;
373: L P[373] 60cm/min CNT100 COORD PTH  ;
374: L P[374] 60cm/min CNT100 COORD PTH  ;
375: L P[375] 60cm/min CNT100 COORD PTH  ;
376: L P[376] 60cm/min CNT100 COORD PTH  ;
377: L P[377] 60cm/min CNT100 COORD PTH  ;
378: L P[378] 60cm/min CNT100 COORD PTH  ;
379: L P[379] 60cm/min CNT100 COORD PTH  ;
380: L P[380] 60cm/min CNT100 COORD PTH  ;
381: L P[381] 60cm/min CNT100 COORD PTH  ;
382: L P[382] 60cm/min CNT100 COORD PTH  ;
383: L P[383] 60cm/min CNT100 COORD PTH  ;
384: L P[384] 60cm/min CNT100 COORD PTH  ;
385: L P[385] 60cm/min CNT100 COORD PTH  ;
386: L P[386] 60cm/min CNT100 COORD PTH  ;
387: L P[387] 60cm/min CNT100 COORD PTH  ;
388: L P[388] 60cm/min CNT100 COORD PTH  ;
389: L P[389] 60cm/min CNT100 COORD PTH  ;
390: L P[390] 60cm/min CNT100 COORD PTH  ;
391: L P[391] 60cm/min CNT100 COORD PTH  ;
392: L P[392] 60cm/min CNT100 COORD PTH  ;
393: L P[393] 60cm/min CNT100 COORD PTH  ;
394: L P[394] 60cm/min CNT100 COORD PTH  ;
395: L P[395] 60cm/min CNT100 COORD PTH  ;
396: L P[396] 60cm/min CNT100 COORD PTH  ;
397: L P[397] 60cm/min CNT100 COORD PTH  ;
398: L P[398] 60cm/min CNT100 COORD PTH  ;
399: L P[399] 60cm/min CNT100 COORD PTH  ;
400: L P[400] 60cm/min CNT100 COORD PTH  ;
401: L P[401] 60cm/min CNT100 COORD PTH  ;
402: L P[402] 60cm/min CNT100 COORD PTH  ;
403: L P[403] 60cm/min CNT100 COORD PTH  ;
404: L P[404] 60cm/min CNT100 COORD PTH  ;
405: L P[405] 60cm/min CNT100 COORD PTH  ;
406: L P[406] 60cm/min CNT100 COORD PTH  ;
407: L P[407] 60cm/min CNT100 COORD PTH  ;
408: L P[408] 60cm/min CNT100 COORD PTH  ;
409: L P[409] 60cm/min CNT100 COORD PTH  ;
: Arc End[1];
410: L P[410] 240cm/min CNT100 COORD  ;
411: L P[411] 240cm/min CNT100 COORD  ;
: Arc Start[1];
412: L P[412] 30cm/min CNT100 COORD PTH  ;
413: L P[413] 30cm/min CNT100 COORD PTH  ;
414: L P[414] 30cm/min CNT100 COORD PTH  ;
415: L P[415] 30cm/min CNT100 COORD PTH  ;
: Arc End[1];
416: L P[416] 240cm/min CNT100 COORD  ;
: Arc Start[1];
417: L P[417] 60cm/min CNT100 COORD PTH  ;
418: L P[418] 60cm/min CNT100 COORD PTH  ;
419: L P[419] 60cm/min CNT100 COORD PTH  ;
420: L P[420] 60cm/min CNT100 COORD PTH  ;
421: L P[421] 60cm/min CNT100 COORD PTH  ;
422: L P[422] 60cm/min CNT100 COORD PTH  ;
423: L P[423] 60cm/min CNT100 COORD PTH  ;
424: L P[424] 60cm/min CNT100 COORD PTH  ;
425: L P[425] 60cm/min CNT100 COORD PTH  ;
426: L P[426] 60cm/min CNT100 COORD PTH  ;
427: L P[427] 60cm/min CNT100 COORD PTH  ;
428: L P[428] 60cm/min CNT100 COORD PTH  ;
429: L P[429] 60cm/min CNT100 COORD PTH  ;
430: L P[430] 60cm/min CNT100 COORD PTH  ;
431: L P[431] 60cm/min CNT100 COORD PTH  ;
432: L P[432] 60cm/min CNT100 COORD PTH  ;
433: L P[433] 60cm/min CNT100 COORD PTH  ;
434: L P[434] 60cm/min CNT100 COORD PTH  ;
435: L P[435] 60cm/min CNT100 COORD PTH  ;
436: L P[436] 60cm/min CNT100 COORD PTH  ;
437: L P[437] 60cm/min CNT100 COORD PTH  ;
438: L P[438] 60cm/min CNT100 COORD PTH  ;
439: L P[439] 60cm/min CNT100 COORD PTH  ;
440: L P[440] 60cm/min CNT100 COORD PTH  ;
441: L P[441] 60cm/min CNT100 COORD PTH  ;
442: L P[442] 60cm/min CNT100 COORD PTH  ;
443: L P[443] 60cm/min CNT100 COORD PTH  ;
444: L P[444] 60cm/min CNT100 COORD PTH  ;
445: L P[445] 60cm/min CNT100 COORD PTH  ;
446: L P[446] 60cm/min CNT100 COORD PTH  ;
447: L P[447] 60cm/min CNT100 COORD PTH  ;
448: L P[448] 60cm/min CNT100 COORD PTH  ;
449: L P[449] 60cm/min CNT100 COORD PTH  ;
450: L P[450] 60cm/min CNT100 COORD PTH  ;
451: L P[451] 60cm/min CNT100 COORD PTH  ;
452: L P[452] 60cm/min CNT100 COORD PTH  ;
453: L P[453] 60cm/min CNT100 COORD PTH  ;
454: L P[454] 60cm/min CNT100 COORD PTH  ;
455: L P[455] 60cm/min CNT100 COORD PTH  ;
456: L P[456] 60cm/min CNT100 COORD PTH  ;
457: L P[457] 60cm/min CNT100 COORD PTH  ;
458: L P[458] 60cm/min CNT100 COORD PTH  ;
459: L P[459] 60cm/min CNT100 COORD PTH  ;
460: L P[460] 60cm/min CNT100 COORD PTH  ;
461: L P[461] 60cm/min CNT100 COORD PTH  ;
462: L P[462] 60cm/min CNT100 COORD PTH  ;
463: L P[463] 60cm/min CNT100 COORD PTH  ;
464: L P[464] 60cm/min CNT100 COORD PTH  ;
465: L P[465] 60cm/min CNT100 COORD PTH  ;
466: L P[466] 60cm/min CNT100 COORD PTH  ;
467: L P[467] 60cm/min CNT100 COORD PTH  ;
468: L P[468] 60cm/min CNT100 COORD PTH  ;
469: L P[469] 60cm/min CNT100 COORD PTH  ;
470: L P[470] 60cm/min CNT100 COORD PTH  ;
471: L P[471] 60cm/min CNT100 COORD PTH  ;
472: L P[472] 60cm/min CNT100 COORD PTH  ;
473: L P[473] 60cm/min CNT100 COORD PTH  ;
474: L P[474] 60cm/min CNT100 COORD PTH  ;
475: L P[475] 60cm/min CNT100 COORD PTH  ;
476: L P[476] 60cm/min CNT100 COORD PTH  ;
477: L P[477] 60cm/min CNT100 COORD PTH  ;
478: L P[478] 60cm/min CNT100 COORD PTH  ;
479: L P[479] 60cm/min CNT100 COORD PTH  ;
480: L P[480] 60cm/min CNT100 COORD PTH  ;
481: L P[481] 60cm/min CNT100 COORD PTH  ;
482: L P[482] 60cm/min CNT100 COORD PTH  ;
483: L P[483] 60cm/min CNT100 COORD PTH  ;
484: L P[484] 60cm/min CNT100 COORD PTH  ;
485: L P[485] 60cm/min CNT100 COORD PTH  ;
486: L P[486] 60cm/min CNT100 COORD PTH  ;
487: L P[487] 60cm/min CNT100 COORD PTH  ;
488: L P[488] 60cm/min CNT100 COORD PTH  ;
489: L P[489] 60cm/min CNT100 COORD PTH  ;
490: L P[490] 60cm/min CNT100 COORD PTH  ;
491: L P[491] 60cm/min CNT100 COORD PTH  ;
492: L P[492] 60cm/min CNT100 COORD PTH  ;
493: L P[493] 60cm/min CNT100 COORD PTH  ;
494: L P[494] 60cm/min CNT100 COORD PTH  ;
495: L P[495] 60cm/min CNT100 COORD PTH  ;
496: L P[496] 60cm/min CNT100 COORD PTH  ;
497: L P[497] 60cm/min CNT100 COORD PTH  ;
: Arc End[1];
498: L P[498] 240cm/min CNT100 COORD  ;
499: L P[499] 240cm/min CNT100 COORD  ;
: Arc Start[1];
500: L P[500] 30cm/min CNT100 COORD PTH  ;
501: L P[501] 30cm/min CNT100 COORD PTH  ;
502: L P[502] 30cm/min CNT100 COORD PTH  ;
503: L P[503] 30cm/min CNT100 COORD PTH  ;
: Arc End[1];
504: L P[504] 240cm/min CNT100 COORD  ;
: Arc Start[1];
505: L P[505] 60cm/min CNT100 COORD PTH  ;
506: L P[506] 60cm/min CNT100 COORD PTH  ;
507: L P[507] 60cm/min CNT100 COORD PTH  ;
508: L P[508] 60cm/min CNT100 COORD PTH  ;
509: L P[509] 60cm/min CNT100 COORD PTH  ;
510: L P[510] 60cm/min CNT100 COORD PTH  ;
511: L P[511] 60cm/min CNT100 COORD PTH  ;
512: L P[512] 60cm/min CNT100 COORD PTH  ;
513: L P[513] 60cm/min CNT100 COORD PTH  ;
514: L P[514] 60cm/min CNT100 COORD PTH  ;
515: L P[515] 60cm/min CNT100 COORD PTH  ;
516: L P[516] 60cm/min CNT100 COORD PTH  ;
517: L P[517] 60cm/min CNT100 COORD PTH  ;
518: L P[518] 60cm/min CNT100 COORD PTH  ;
519: L P[519] 60cm/min CNT100 COORD PTH  ;
520: L P[520] 60cm/min CNT100 COORD PTH  ;
521: L P[521] 60cm/min CNT100 COORD PTH  ;
522: L P[522] 60cm/min CNT100 COORD PTH  ;
523: L P[523] 60cm/min CNT100 COORD PTH  ;
524: L P[524] 60cm/min CNT100 COORD PTH  ;
525: L P[525] 60cm/min CNT100 COORD PTH  ;
526: L P[526] 60cm/min CNT100 COORD PTH  ;
527: L P[527] 60cm/min CNT100 COORD PTH  ;
528: L P[528] 60cm/min CNT100 COORD PTH  ;
529: L P[529] 60cm/min CNT100 COORD PTH  ;
530: L P[530] 60cm/min CNT100 COORD PTH  ;
531: L P[531] 60cm/min CNT100 COORD PTH  ;
532: L P[532] 60cm/min CNT100 COORD PTH  ;
533: L P[533] 60cm/min CNT100 COORD PTH  ;
534: L P[534] 60cm/min CNT100 COORD PTH  ;
535: L P[535] 60cm/min CNT100 COORD PTH  ;
536: L P[536] 60cm/min CNT100 COORD PTH  ;
537: L P[537] 60cm/min CNT100 COORD PTH  ;
538: L P[538] 60cm/min CNT100 COORD PTH  ;
539: L P[539] 60cm/min CNT100 COORD PTH  ;
540: L P[540] 60cm/min CNT100 COORD PTH  ;
541: L P[541] 60cm/min CNT100 COORD PTH  ;
542: L P[542] 60cm/min CNT100 COORD PTH  ;
543: L P[543] 60cm/min CNT100 COORD PTH  ;
544: L P[544] 60cm/min CNT100 COORD PTH  ;
545: L P[545] 60cm/min CNT100 COORD PTH  ;
546: L P[546] 60cm/min CNT100 COORD PTH  ;
547: L P[547] 60cm/min CNT100 COORD PTH  ;
548: L P[548] 60cm/min CNT100 COORD PTH  ;
549: L P[549] 60cm/min CNT100 COORD PTH  ;
550: L P[550] 60cm/min CNT100 COORD PTH  ;
551: L P[551] 60cm/min CNT100 COORD PTH  ;
552: L P[552] 60cm/min CNT100 COORD PTH  ;
553: L P[553] 60cm/min CNT100 COORD PTH  ;
554: L P[554] 60cm/min CNT100 COORD PTH  ;
555: L P[555] 60cm/min CNT100 COORD PTH  ;
556: L P[556] 60cm/min CNT100 COORD PTH  ;
557: L P[557] 60cm/min CNT100 COORD PTH  ;
558: L P[558] 60cm/min CNT100 COORD PTH  ;
559: L P[559] 60cm/min CNT100 COORD PTH  ;
560: L P[560] 60cm/min CNT100 COORD PTH  ;
561: L P[561] 60cm/min CNT100 COORD PTH  ;
562: L P[562] 60cm/min CNT100 COORD PTH  ;
563: L P[563] 60cm/min CNT100 COORD PTH  ;
564: L P[564] 60cm/min CNT100 COORD PTH  ;
565: L P[565] 60cm/min CNT100 COORD PTH  ;
566: L P[566] 60cm/min CNT100 COORD PTH  ;
567: L P[567] 60cm/min CNT100 COORD PTH  ;
568: L P[568] 60cm/min CNT100 COORD PTH  ;
569: L P[569] 60cm/min CNT100 COORD PTH  ;
570: L P[570] 60cm/min CNT100 COORD PTH  ;
571: L P[571] 60cm/min CNT100 COORD PTH  ;
572: L P[572] 60cm/min CNT100 COORD PTH  ;
573: L P[573] 60cm/min CNT100 COORD PTH  ;
574: L P[574] 60cm/min CNT100 COORD PTH  ;
575: L P[575] 60cm/min CNT100 COORD PTH  ;
576: L P[576] 60cm/min CNT100 COORD PTH  ;
577: L P[577] 60cm/min CNT100 COORD PTH  ;
578: L P[578] 60cm/min CNT100 COORD PTH  ;
579: L P[579] 60cm/min CNT100 COORD PTH  ;
580: L P[580] 60cm/min CNT100 COORD PTH  ;
581: L P[581] 60cm/min CNT100 COORD PTH  ;
582: L P[582] 60cm/min CNT100 COORD PTH  ;
583: L P[583] 60cm/min CNT100 COORD PTH  ;
584: L P[584] 60cm/min CNT100 COORD PTH  ;
585: L P[585] 60cm/min CNT100 COORD PTH  ;
: Arc End[1];
586: L P[586] 240cm/min CNT100 COORD  ;
587: L P[587] 240cm/min CNT100 COORD  ;
: Arc Start[1];
588: L P[588] 30cm/min CNT100 COORD PTH  ;
589: L P[589] 30cm/min CNT100 COORD PTH  ;
590: L P[590] 30cm/min CNT100 COORD PTH  ;
591: L P[591] 30cm/min CNT100 COORD PTH  ;
: Arc End[1];
592: L P[592] 240cm/min CNT100 COORD  ;
: Arc Start[1];
593: L P[593] 60cm/min CNT100 COORD PTH  ;
594: L P[594] 60cm/min CNT100 COORD PTH  ;
595: L P[595] 60cm/min CNT100 COORD PTH  ;
596: L P[596] 60cm/min CNT100 COORD PTH  ;
597: L P[597] 60cm/min CNT100 COORD PTH  ;
598: L P[598] 60cm/min CNT100 COORD PTH  ;
599: L P[599] 60cm/min CNT100 COORD PTH  ;
600: L P[600] 60cm/min CNT100 COORD PTH  ;
601: L P[601] 60cm/min CNT100 COORD PTH  ;
602: L P[602] 60cm/min CNT100 COORD PTH  ;
603: L P[603] 60cm/min CNT100 COORD PTH  ;
604: L P[604] 60cm/min CNT100 COORD PTH  ;
605: L P[605] 60cm/min CNT100 COORD PTH  ;
606: L P[606] 60cm/min CNT100 COORD PTH  ;
607: L P[607] 60cm/min CNT100 COORD PTH  ;
608: L P[608] 60cm/min CNT100 COORD PTH  ;
609: L P[609] 60cm/min CNT100 COORD PTH  ;
610: L P[610] 60cm/min CNT100 COORD PTH  ;
611: L P[611] 60cm/min CNT100 COORD PTH  ;
612: L P[612] 60cm/min CNT100 COORD PTH  ;
613: L P[613] 60cm/min CNT100 COORD PTH  ;
614: L P[614] 60cm/min CNT100 COORD PTH  ;
615: L P[615] 60cm/min CNT100 COORD PTH  ;
616: L P[616] 60cm/min CNT100 COORD PTH  ;
617: L P[617] 60cm/min CNT100 COORD PTH  ;
618: L P[618] 60cm/min CNT100 COORD PTH  ;
619: L P[619] 60cm/min CNT100 COORD PTH  ;
620: L P[620] 60cm/min CNT100 COORD PTH  ;
621: L P[621] 60cm/min CNT100 COORD PTH  ;
622: L P[622] 60cm/min CNT100 COORD PTH  ;
623: L P[623] 60cm/min CNT100 COORD PTH  ;
624: L P[624] 60cm/min CNT100 COORD PTH  ;
625: L P[625] 60cm/min CNT100 COORD PTH  ;
626: L P[626] 60cm/min CNT100 COORD PTH  ;
627: L P[627] 60cm/min CNT100 COORD PTH  ;
628: L P[628] 60cm/min CNT100 COORD PTH  ;
629: L P[629] 60cm/min CNT100 COORD PTH  ;
630: L P[630] 60cm/min CNT100 COORD PTH  ;
631: L P[631] 60cm/min CNT100 COORD PTH  ;
632: L P[632] 60cm/min CNT100 COORD PTH  ;
633: L P[633] 60cm/min CNT100 COORD PTH  ;
634: L P[634] 60cm/min CNT100 COORD PTH  ;
635: L P[635] 60cm/min CNT100 COORD PTH  ;
636: L P[636] 60cm/min CNT100 COORD PTH  ;
637: L P[637] 60cm/min CNT100 COORD PTH  ;
638: L P[638] 60cm/min CNT100 COORD PTH  ;
639: L P[639] 60cm/min CNT100 COORD PTH  ;
640: L P[640] 60cm/min CNT100 COORD PTH  ;
641: L P[641] 60cm/min CNT100 COORD PTH  ;
642: L P[642] 60cm/min CNT100 COORD PTH  ;
643: L P[643] 60cm/min CNT100 COORD PTH  ;
644: L P[644] 60cm/min CNT100 COORD PTH  ;
645: L P[645] 60cm/min CNT100 COORD PTH  ;
646: L P[646] 60cm/min CNT100 COORD PTH  ;
647: L P[647] 60cm/min CNT100 COORD PTH  ;
648: L P[648] 60cm/min CNT100 COORD PTH  ;
649: L P[649] 60cm/min CNT100 COORD PTH  ;
650: L P[650] 60cm/min CNT100 COORD PTH  ;
651: L P[651] 60cm/min CNT100 COORD PTH  ;
652: L P[652] 60cm/min CNT100 COORD PTH  ;
653: L P[653] 60cm/min CNT100 COORD PTH  ;
654: L P[654] 60cm/min CNT100 COORD PTH  ;
655: L P[655] 60cm/min CNT100 COORD PTH  ;
656: L P[656] 60cm/min CNT100 COORD PTH  ;
657: L P[657] 60cm/min CNT100 COORD PTH  ;
658: L P[658] 60cm/min CNT100 COORD PTH  ;
659: L P[659] 60cm/min CNT100 COORD PTH  ;
660: L P[660] 60cm/min CNT100 COORD PTH  ;
661: L P[661] 60cm/min CNT100 COORD PTH  ;
662: L P[662] 60cm/min CNT100 COORD PTH  ;
663: L P[663] 60cm/min CNT100 COORD PTH  ;
664: L P[664] 60cm/min CNT100 COORD PTH  ;
665: L P[665] 60cm/min CNT100 COORD PTH  ;
666: L P[666] 60cm/min CNT100 COORD PTH  ;
667: L P[667] 60cm/min CNT100 COORD PTH  ;
668: L P[668] 60cm/min CNT100 COORD PTH  ;
669: L P[669] 60cm/min CNT100 COORD PTH  ;
670: L P[670] 60cm/min CNT100 COORD PTH  ;
671: L P[671] 60cm/min CNT100 COORD PTH  ;
672: L P[672] 60cm/min CNT100 COORD PTH  ;
673: L P[673] 60cm/min CNT100 COORD PTH  ;
: Arc End[1];
674: L P[674] 240cm/min CNT100 COORD  ;
675: L P[675] 240cm/min CNT100 COORD  ;
: Arc Start[1];
676: L P[676] 30cm/min CNT100 COORD PTH  ;
677: L P[677] 30cm/min CNT100 COORD PTH  ;
678: L P[678] 30cm/min CNT100 COORD PTH  ;
679: L P[679] 30cm/min CNT100 COORD PTH  ;
: Arc End[1];
680: L P[680] 240cm/min CNT100 COORD  ;
: Arc Start[1];
681: L P[681] 60cm/min CNT100 COORD PTH  ;
682: L P[682] 60cm/min CNT100 COORD PTH  ;
683: L P[683] 60cm/min CNT100 COORD PTH  ;
684: L P[684] 60cm/min CNT100 COORD PTH  ;
685: L P[685] 60cm/min CNT100 COORD PTH  ;
686: L P[686] 60cm/min CNT100 COORD PTH  ;
687: L P[687] 60cm/min CNT100 COORD PTH  ;
688: L P[688] 60cm/min CNT100 COORD PTH  ;
689: L P[689] 60cm/min CNT100 COORD PTH  ;
690: L P[690] 60cm/min CNT100 COORD PTH  ;
691: L P[691] 60cm/min CNT100 COORD PTH  ;
692: L P[692] 60cm/min CNT100 COORD PTH  ;
693: L P[693] 60cm/min CNT100 COORD PTH  ;
694: L P[694] 60cm/min CNT100 COORD PTH  ;
695: L P[695] 60cm/min CNT100 COORD PTH  ;
696: L P[696] 60cm/min CNT100 COORD PTH  ;
697: L P[697] 60cm/min CNT100 COORD PTH  ;
698: L P[698] 60cm/min CNT100 COORD PTH  ;
699: L P[699] 60cm/min CNT100 COORD PTH  ;
700: L P[700] 60cm/min CNT100 COORD PTH  ;
701: L P[701] 60cm/min CNT100 COORD PTH  ;
702: L P[702] 60cm/min CNT100 COORD PTH  ;
703: L P[703] 60cm/min CNT100 COORD PTH  ;
704: L P[704] 60cm/min CNT100 COORD PTH  ;
705: L P[705] 60cm/min CNT100 COORD PTH  ;
706: L P[706] 60cm/min CNT100 COORD PTH  ;
707: L P[707] 60cm/min CNT100 COORD PTH  ;
708: L P[708] 60cm/min CNT100 COORD PTH  ;
709: L P[709] 60cm/min CNT100 COORD PTH  ;
710: L P[710] 60cm/min CNT100 COORD PTH  ;
711: L P[711] 60cm/min CNT100 COORD PTH  ;
712: L P[712] 60cm/min CNT100 COORD PTH  ;
713: L P[713] 60cm/min CNT100 COORD PTH  ;
714: L P[714] 60cm/min CNT100 COORD PTH  ;
715: L P[715] 60cm/min CNT100 COORD PTH  ;
716: L P[716] 60cm/min CNT100 COORD PTH  ;
717: L P[717] 60cm/min CNT100 COORD PTH  ;
718: L P[718] 60cm/min CNT100 COORD PTH  ;
719: L P[719] 60cm/min CNT100 COORD PTH  ;
720: L P[720] 60cm/min CNT100 COORD PTH  ;
721: L P[721] 60cm/min CNT100 COORD PTH  ;
722: L P[722] 60cm/min CNT100 COORD PTH  ;
723: L P[723] 60cm/min CNT100 COORD PTH  ;
724: L P[724] 60cm/min CNT100 COORD PTH  ;
725: L P[725] 60cm/min CNT100 COORD PTH  ;
726: L P[726] 60cm/min CNT100 COORD PTH  ;
727: L P[727] 60cm/min CNT100 COORD PTH  ;
728: L P[728] 60cm/min CNT100 COORD PTH  ;
729: L P[729] 60cm/min CNT100 COORD PTH  ;
730: L P[730] 60cm/min CNT100 COORD PTH  ;
731: L P[731] 60cm/min CNT100 COORD PTH  ;
732: L P[732] 60cm/min CNT100 COORD PTH  ;
733: L P[733] 60cm/min CNT100 COORD PTH  ;
734: L P[734] 60cm/min CNT100 COORD PTH  ;
735: L P[735] 60cm/min CNT100 COORD PTH  ;
736: L P[736] 60cm/min CNT100 COORD PTH  ;
737: L P[737] 60cm/min CNT100 COORD PTH  ;
738: L P[738] 60cm/min CNT100 COORD PTH  ;
739: L P[739] 60cm/min CNT100 COORD PTH  ;
740: L P[740] 60cm/min CNT100 COORD PTH  ;
741: L P[741] 60cm/min CNT100 COORD PTH  ;
742: L P[742] 60cm/min CNT100 COORD PTH  ;
743: L P[743] 60cm/min CNT100 COORD PTH  ;
744: L P[744] 60cm/min CNT100 COORD PTH  ;
745: L P[745] 60cm/min CNT100 COORD PTH  ;
746: L P[746] 60cm/min CNT100 COORD PTH  ;
747: L P[747] 60cm/min CNT100 COORD PTH  ;
748: L P[748] 60cm/min CNT100 COORD PTH  ;
749: L P[749] 60cm/min CNT100 COORD PTH  ;
750: L P[750] 60cm/min CNT100 COORD PTH  ;
751: L P[751] 60cm/min CNT100 COORD PTH  ;
752: L P[752] 60cm/min CNT100 COORD PTH  ;
753: L P[753] 60cm/min CNT100 COORD PTH  ;
754: L P[754] 60cm/min CNT100 COORD PTH  ;
755: L P[755] 60cm/min CNT100 COORD PTH  ;
756: L P[756] 60cm/min CNT100 COORD PTH  ;
757: L P[757] 60cm/min CNT100 COORD PTH  ;
758: L P[758] 60cm/min CNT100 COORD PTH  ;
759: L P[759] 60cm/min CNT100 COORD PTH  ;
760: L P[760] 60cm/min CNT100 COORD PTH  ;
761: L P[761] 60cm/min CNT100 COORD PTH  ;
: Arc End[1];
762: L P[762] 240cm/min CNT100 COORD  ;
763: L P[763] 240cm/min CNT100 COORD  ;
: Arc Start[1];
764: L P[764] 30cm/min CNT100 COORD PTH  ;
765: L P[765] 30cm/min CNT100 COORD PTH  ;
766: L P[766] 30cm/min CNT100 COORD PTH  ;
767: L P[767] 30cm/min CNT100 COORD PTH  ;
: Arc End[1];
768: L P[768] 240cm/min CNT100 COORD  ;
: Arc Start[1];
769: L P[769] 60cm/min CNT100 COORD PTH  ;
770: L P[770] 60cm/min CNT100 COORD PTH  ;
771: L P[771] 60cm/min CNT100 COORD PTH  ;
772: L P[772] 60cm/min CNT100 COORD PTH  ;
773: L P[773] 60cm/min CNT100 COORD PTH  ;
774: L P[774] 60cm/min CNT100 COORD PTH  ;
775: L P[775] 60cm/min CNT100 COORD PTH  ;
776: L P[776] 60cm/min CNT100 COORD PTH  ;
777: L P[777] 60cm/min CNT100 COORD PTH  ;
778: L P[778] 60cm/min CNT100 COORD PTH  ;
779: L P[779] 60cm/min CNT100 COORD PTH  ;
780: L P[780] 60cm/min CNT100 COORD PTH  ;
781: L P[781] 60cm/min CNT100 COORD PTH  ;
782: L P[782] 60cm/min CNT100 COORD PTH  ;
783: L P[783] 60cm/min CNT100 COORD PTH  ;
784: L P[784] 60cm/min CNT100 COORD PTH  ;
785: L P[785] 60cm/min CNT100 COORD PTH  ;
786: L P[786] 60cm/min CNT100 COORD PTH  ;
787: L P[787] 60cm/min CNT100 COORD PTH  ;
788: L P[788] 60cm/min CNT100 COORD PTH  ;
789: L P[789] 60cm/min CNT100 COORD PTH  ;
790: L P[790] 60cm/min CNT100 COORD PTH  ;
791: L P[791] 60cm/min CNT100 COORD PTH  ;
792: L P[792] 60cm/min CNT100 COORD PTH  ;
793: L P[793] 60cm/min CNT100 COORD PTH  ;
794: L P[794] 60cm/min CNT100 COORD PTH  ;
795: L P[795] 60cm/min CNT100 COORD PTH  ;
796: L P[796] 60cm/min CNT100 COORD PTH  ;
797: L P[797] 60cm/min CNT100 COORD PTH  ;
798: L P[798] 60cm/min CNT100 COORD PTH  ;
799: L P[799] 60cm/min CNT100 COORD PTH  ;
800: L P[800] 60cm/min CNT100 COORD PTH  ;
801: L P[801] 60cm/min CNT100 COORD PTH  ;
802: L P[802] 60cm/min CNT100 COORD PTH  ;
803: L P[803] 60cm/min CNT100 COORD PTH  ;
804: L P[804] 60cm/min CNT100 COORD PTH  ;
805: L P[805] 60cm/min CNT100 COORD PTH  ;
806: L P[806] 60cm/min CNT100 COORD PTH  ;
807: L P[807] 60cm/min CNT100 COORD PTH  ;
808: L P[808] 60cm/min CNT100 COORD PTH  ;
809: L P[809] 60cm/min CNT100 COORD PTH  ;
810: L P[810] 60cm/min CNT100 COORD PTH  ;
811: L P[811] 60cm/min CNT100 COORD PTH  ;
812: L P[812] 60cm/min CNT100 COORD PTH  ;
813: L P[813] 60cm/min CNT100 COORD PTH  ;
814: L P[814] 60cm/min CNT100 COORD PTH  ;
815: L P[815] 60cm/min CNT100 COORD PTH  ;
816: L P[816] 60cm/min CNT100 COORD PTH  ;
817: L P[817] 60cm/min CNT100 COORD PTH  ;
818: L P[818] 60cm/min CNT100 COORD PTH  ;
819: L P[819] 60cm/min CNT100 COORD PTH  ;
820: L P[820] 60cm/min CNT100 COORD PTH  ;
821: L P[821] 60cm/min CNT100 COORD PTH  ;
822: L P[822] 60cm/min CNT100 COORD PTH  ;
823: L P[823] 60cm/min CNT100 COORD PTH  ;
824: L P[824] 60cm/min CNT100 COORD PTH  ;
825: L P[825] 60cm/min CNT100 COORD PTH  ;
826: L P[826] 60cm/min CNT100 COORD PTH  ;
827: L P[827] 60cm/min CNT100 COORD PTH  ;
828: L P[828] 60cm/min CNT100 COORD PTH  ;
829: L P[829] 60cm/min CNT100 COORD PTH  ;
830: L P[830] 60cm/min CNT100 COORD PTH  ;
831: L P[831] 60cm/min CNT100 COORD PTH  ;
832: L P[832] 60cm/min CNT100 COORD PTH  ;
833: L P[833] 60cm/min CNT100 COORD PTH  ;
834: L P[834] 60cm/min CNT100 COORD PTH  ;
835: L P[835] 60cm/min CNT100 COORD PTH  ;
836: L P[836] 60cm/min CNT100 COORD PTH  ;
837: L P[837] 60cm/min CNT100 COORD PTH  ;
838: L P[838] 60cm/min CNT100 COORD PTH  ;
839: L P[839] 60cm/min CNT100 COORD PTH  ;
840: L P[840] 60cm/min CNT100 COORD PTH  ;
841: L P[841] 60cm/min CNT100 COORD PTH  ;
842: L P[842] 60cm/min CNT100 COORD PTH  ;
843: L P[843] 60cm/min CNT100 COORD PTH  ;
844: L P[844] 60cm/min CNT100 COORD PTH  ;
845: L P[845] 60cm/min CNT100 COORD PTH  ;
846: L P[846] 60cm/min CNT100 COORD PTH  ;
847: L P[847] 60cm/min CNT100 COORD PTH  ;
848: L P[848] 60cm/min CNT100 COORD PTH  ;
849: L P[849] 60cm/min CNT100 COORD PTH  ;
: Arc End[1];
850: L P[850] 240cm/min CNT100 COORD  ;
851: L P[851] 240cm/min CNT100 COORD  ;
: Arc Start[1];
852: L P[852] 30cm/min CNT100 COORD PTH  ;
853: L P[853] 30cm/min CNT100 COORD PTH  ;
854: L P[854] 30cm/min CNT100 COORD PTH  ;
855: L P[855] 30cm/min CNT100 COORD PTH  ;
: Arc End[1];
856: L P[856] 240cm/min CNT100 COORD  ;
: Arc Start[1];
857: L P[857] 60cm/min CNT100 COORD PTH  ;
858: L P[858] 60cm/min CNT100 COORD PTH  ;
859: L P[859] 60cm/min CNT100 COORD PTH  ;
860: L P[860] 60cm/min CNT100 COORD PTH  ;
861: L P[861] 60cm/min CNT100 COORD PTH  ;
862: L P[862] 60cm/min CNT100 COORD PTH  ;
863: L P[863] 60cm/min CNT100 COORD PTH  ;
864: L P[864] 60cm/min CNT100 COORD PTH  ;
865: L P[865] 60cm/min CNT100 COORD PTH  ;
866: L P[866] 60cm/min CNT100 COORD PTH  ;
867: L P[867] 60cm/min CNT100 COORD PTH  ;
868: L P[868] 60cm/min CNT100 COORD PTH  ;
869: L P[869] 60cm/min CNT100 COORD PTH  ;
870: L P[870] 60cm/min CNT100 COORD PTH  ;
871: L P[871] 60cm/min CNT100 COORD PTH  ;
872: L P[872] 60cm/min CNT100 COORD PTH  ;
873: L P[873] 60cm/min CNT100 COORD PTH  ;
874: L P[874] 60cm/min CNT100 COORD PTH  ;
875: L P[875] 60cm/min CNT100 COORD PTH  ;
876: L P[876] 60cm/min CNT100 COORD PTH  ;
877: L P[877] 60cm/min CNT100 COORD PTH  ;
878: L P[878] 60cm/min CNT100 COORD PTH  ;
879: L P[879] 60cm/min CNT100 COORD PTH  ;
880: L P[880] 60cm/min CNT100 COORD PTH  ;
881: L P[881] 60cm/min CNT100 COORD PTH  ;
882: L P[882] 60cm/min CNT100 COORD PTH  ;
883: L P[883] 60cm/min CNT100 COORD PTH  ;
884: L P[884] 60cm/min CNT100 COORD PTH  ;
885: L P[885] 60cm/min CNT100 COORD PTH  ;
886: L P[886] 60cm/min CNT100 COORD PTH  ;
887: L P[887] 60cm/min CNT100 COORD PTH  ;
888: L P[888] 60cm/min CNT100 COORD PTH  ;
889: L P[889] 60cm/min CNT100 COORD PTH  ;
890: L P[890] 60cm/min CNT100 COORD PTH  ;
891: L P[891] 60cm/min CNT100 COORD PTH  ;
892: L P[892] 60cm/min CNT100 COORD PTH  ;
893: L P[893] 60cm/min CNT100 COORD PTH  ;
894: L P[894] 60cm/min CNT100 COORD PTH  ;
895: L P[895] 60cm/min CNT100 COORD PTH  ;
896: L P[896] 60cm/min CNT100 COORD PTH  ;
897: L P[897] 60cm/min CNT100 COORD PTH  ;
898: L P[898] 60cm/min CNT100 COORD PTH  ;
899: L P[899] 60cm/min CNT100 COORD PTH  ;
900: L P[900] 60cm/min CNT100 COORD PTH  ;
901: L P[901] 60cm/min CNT100 COORD PTH  ;
902: L P[902] 60cm/min CNT100 COORD PTH  ;
903: L P[903] 60cm/min CNT100 COORD PTH  ;
904: L P[904] 60cm/min CNT100 COORD PTH  ;
905: L P[905] 60cm/min CNT100 COORD PTH  ;
906: L P[906] 60cm/min CNT100 COORD PTH  ;
907: L P[907] 60cm/min CNT100 COORD PTH  ;
908: L P[908] 60cm/min CNT100 COORD PTH  ;
909: L P[909] 60cm/min CNT100 COORD PTH  ;
910: L P[910] 60cm/min CNT100 COORD PTH  ;
911: L P[911] 60cm/min CNT100 COORD PTH  ;
912: L P[912] 60cm/min CNT100 COORD PTH  ;
913: L P[913] 60cm/min CNT100 COORD PTH  ;
914: L P[914] 60cm/min CNT100 COORD PTH  ;
915: L P[915] 60cm/min CNT100 COORD PTH  ;
916: L P[916] 60cm/min CNT100 COORD PTH  ;
917: L P[917] 60cm/min CNT100 COORD PTH  ;
918: L P[918] 60cm/min CNT100 COORD PTH  ;
919: L P[919] 60cm/min CNT100 COORD PTH  ;
920: L P[920] 60cm/min CNT100 COORD PTH  ;
921: L P[921] 60cm/min CNT100 COORD PTH  ;
922: L P[922] 60cm/min CNT100 COORD PTH  ;
923: L P[923] 60cm/min CNT100 COORD PTH  ;
924: L P[924] 60cm/min CNT100 COORD PTH  ;
925: L P[925] 60cm/min CNT100 COORD PTH  ;
926: L P[926] 60cm/min CNT100 COORD PTH  ;
927: L P[927] 60cm/min CNT100 COORD PTH  ;
928: L P[928] 60cm/min CNT100 COORD PTH  ;
929: L P[929] 60cm/min CNT100 COORD PTH  ;
930: L P[930] 60cm/min CNT100 COORD PTH  ;
931: L P[931] 60cm/min CNT100 COORD PTH  ;
932: L P[932] 60cm/min CNT100 COORD PTH  ;
933: L P[933] 60cm/min CNT100 COORD PTH  ;
934: L P[934] 60cm/min CNT100 COORD PTH  ;
935: L P[935] 60cm/min CNT100 COORD PTH  ;
936: L P[936] 60cm/min CNT100 COORD PTH  ;
937: L P[937] 60cm/min CNT100 COORD PTH  ;
: Arc End[1];
938: L P[938] 240cm/min CNT100 COORD  ;
939: L P[939] 240cm/min CNT100 COORD  ;
: Arc Start[1];
940: L P[940] 30cm/min CNT100 COORD PTH  ;
941: L P[941] 30cm/min CNT100 COORD PTH  ;
942: L P[942] 30cm/min CNT100 COORD PTH  ;
943: L P[943] 30cm/min CNT100 COORD PTH  ;
: Arc End[1];
944: L P[944] 240cm/min CNT100 COORD  ;
: Arc Start[1];
945: L P[945] 60cm/min CNT100 COORD PTH  ;
946: L P[946] 60cm/min CNT100 COORD PTH  ;
947: L P[947] 60cm/min CNT100 COORD PTH  ;
948: L P[948] 60cm/min CNT100 COORD PTH  ;
949: L P[949] 60cm/min CNT100 COORD PTH  ;
950: L P[950] 60cm/min CNT100 COORD PTH  ;
951: L P[951] 60cm/min CNT100 COORD PTH  ;
952: L P[952] 60cm/min CNT100 COORD PTH  ;
953: L P[953] 60cm/min CNT100 COORD PTH  ;
954: L P[954] 60cm/min CNT100 COORD PTH  ;
955: L P[955] 60cm/min CNT100 COORD PTH  ;
956: L P[956] 60cm/min CNT100 COORD PTH  ;
957: L P[957] 60cm/min CNT100 COORD PTH  ;
958: L P[958] 60cm/min CNT100 COORD PTH  ;
959: L P[959] 60cm/min CNT100 COORD PTH  ;
960: L P[960] 60cm/min CNT100 COORD PTH  ;
961: L P[961] 60cm/min CNT100 COORD PTH  ;
962: L P[962] 60cm/min CNT100 COORD PTH  ;
963: L P[963] 60cm/min CNT100 COORD PTH  ;
964: L P[964] 60cm/min CNT100 COORD PTH  ;
965: L P[965] 60cm/min CNT100 COORD PTH  ;
966: L P[966] 60cm/min CNT100 COORD PTH  ;
967: L P[967] 60cm/min CNT100 COORD PTH  ;
968: L P[968] 60cm/min CNT100 COORD PTH  ;
969: L P[969] 60cm/min CNT100 COORD PTH  ;
970: L P[970] 60cm/min CNT100 COORD PTH  ;
971: L P[971] 60cm/min CNT100 COORD PTH  ;
972: L P[972] 60cm/min CNT100 COORD PTH  ;
973: L P[973] 60cm/min CNT100 COORD PTH  ;
974: L P[974] 60cm/min CNT100 COORD PTH  ;
975: L P[975] 60cm/min CNT100 COORD PTH  ;
976: L P[976] 60cm/min CNT100 COORD PTH  ;
977: L P[977] 60cm/min CNT100 COORD PTH  ;
978: L P[978] 60cm/min CNT100 COORD PTH  ;
979: L P[979] 60cm/min CNT100 COORD PTH  ;
980: L P[980] 60cm/min CNT100 COORD PTH  ;
981: L P[981] 60cm/min CNT100 COORD PTH  ;
982: L P[982] 60cm/min CNT100 COORD PTH  ;
983: L P[983] 60cm/min CNT100 COORD PTH  ;
984: L P[984] 60cm/min CNT100 COORD PTH  ;
985: L P[985] 60cm/min CNT100 COORD PTH  ;
986: L P[986] 60cm/min CNT100 COORD PTH  ;
987: L P[987] 60cm/min CNT100 COORD PTH  ;
988: L P[988] 60cm/min CNT100 COORD PTH  ;
989: L P[989] 60cm/min CNT100 COORD PTH  ;
990: L P[990] 60cm/min CNT100 COORD PTH  ;
991: L P[991] 60cm/min CNT100 COORD PTH  ;
992: L P[992] 60cm/min CNT100 COORD PTH  ;
993: L P[993] 60cm/min CNT100 COORD PTH  ;
994: L P[994] 60cm/min CNT100 COORD PTH  ;
995: L P[995] 60cm/min CNT100 COORD PTH  ;
996: L P[996] 60cm/min CNT100 COORD PTH  ;
997: L P[997] 60cm/min CNT100 COORD PTH  ;
998: L P[998] 60cm/min CNT100 COORD PTH  ;
999: L P[999] 60cm/min CNT100 COORD PTH  ;
: CALL cub_2;
/POS
P[1] {
   GP1:
       UF : 6, UT : 5,     CONFIG: 'N U T, 0, 0, 0',
      X = -11.0 mm, Y = -26.3 mm, Z = 89.6 mm,
      W = 0.0 deg, P = 0.0 deg, R = 0.0 deg
   GP2:
       UF : 1, UT : 2,
      J1 = 0.0 deg, J2 = 0.0 deg 
};
P[2] {
   GP1:
       UF : 6, UT : 5,     CONFIG: 'N U T, 0, 0, 0',
      X = -15.7 mm, Y = -26.3 mm, Z = 89.6 mm,
      W = 0.0 deg, P = 0.0 deg, R = 0.0 deg
   GP2:
       UF : 1, UT : 2,
      J1 = 0.0 deg, J2 = 0.0 deg 
};
P[3] {
   GP1:
       UF : 6, UT : 5,     CONFIG: 'N U T, 0, 0, 0',
      X = 48.7 mm, Y = -90.7 mm, Z = 89.6 mm,
      W = 0.0 deg, P = 0.0 deg, R = 0.0 deg
   GP2:
       UF : 1, UT : 2,
      J1 = 0.0 deg, J2 = 0.0 deg 
};
P[4] {
   GP1:
       UF : 6, UT : 5,     CONFIG: 'N U T, 0, 0, 0',
      X = 48.7 mm, Y = -95.4 mm, Z = 89.6 mm,
      W = 0.0 deg, P = 0.0 deg, R = 0.0 deg
   GP2:
       UF : 1, UT : 2,
      J1 = 0.0 deg, J2 = 0.0 deg 
};
P[5] {
   GP1:
       UF : 6, UT : 5,     CONFIG: 'N U T, 0, 0, 0',
      X = -20.4 mm, Y = -26.3 mm, Z = 89.6 mm,
      W = 0.0 deg, P = 0.0 deg, R = 0.0 deg
   GP2:
       UF : 1, UT : 2,
      J1 = 0.0 deg, J2 = 0.0 deg 
};
P[6] {
   GP1:
       UF : 6, UT : 5,     CONFIG: 'N U T, 0, 0, 0',
      X = -25.2 mm, Y = -26.3 mm, Z = 89.6 mm,
      W = 0.0 deg, P = 0.0 deg, R = 0.0 deg
   GP2:
       UF : 1, UT : 2,
      J1 = 0.0 deg, J2 = 0.0 deg 
};
P[7] {
   GP1:
       UF : 6, UT : 5,     CONFIG: 'N U T, 0, 0, 0',
      X = 48.7 mm, Y = -100.0 mm, Z = 89.6 mm,
      W = 0.0 deg, P = 0.0 deg, R = 0.0 deg
   GP2:
       UF : 1, UT : 2,
      J1 = 0.0 deg, J2 = 0.0 deg 
};
P[8] {
   GP1:
       UF : 6, UT : 5,     CONFIG: 'N U T, 0, 0, 0',
      X = 48.7 mm, Y = -105.0 mm, Z = 89.6 mm,
      W = 0.0 deg, P = 0.0 deg, R = 0.0 deg
   GP2:
       UF : 1, UT : 2,
      J1 = 0.0 deg, J2 = 0.0 deg 
};
P[9] {
   GP1:
       UF : 6, UT : 5,     CONFIG: 'N U T, 0, 0, 0',
      X = -29.9 mm, Y = -26.3 mm, Z = 89.6 mm,
      W = 0.0 deg, P = 0.0 deg, R = 0.0 deg
   GP2:
       UF : 1, UT : 2,
      J1 = 0.0 deg, J2 = 0.0 deg 
};
P[10] {
   GP1:
       UF : 6, UT : 5,     CONFIG: 'N U T, 0, 0, 0',
      X = -34.6 mm, Y = -26.3 mm, Z = 89.6 mm,
      W = 0.0 deg, P = 0.0 deg, R = 0.0 deg
   GP2:
       UF : 1, UT : 2,
      J1 = 0.0 deg, J2 = 0.0 deg 
};
P[11] {
   GP1:
       UF : 6, UT : 5,     CONFIG: 'N U T, 0, 0, 0',
      X = 48.7 mm, Y = -110.0 mm, Z = 89.6 mm,
      W = 0.0 deg, P = 0.0 deg, R = 0.0 deg
   GP2:
       UF : 1, UT : 2,
      J1 = 0.0 deg, J2 = 0.0 deg 
};
P[12] {
   GP1:
       UF : 6, UT : 5,     CONFIG: 'N U T, 0, 0, 0',
      X = 48.7 mm, Y = -114.0 mm, Z = 89.6 mm,
      W = 0.0 deg, P = 0.0 deg, R = 0.0 deg
   GP2:
       UF : 1, UT : 2,
      J1 = 0.0 deg, J2 = 0.0 deg 
};
P[13] {
   GP1:
       UF : 6, UT : 5,     CONFIG: 'N U T, 0, 0, 0',
      X = -39.3 mm, Y = -26.3 mm, Z = 89.6 mm,
      W = 0.0 deg, P = 0.0 deg, R = 0.0 deg
   GP2:
       UF : 1, UT : 2,
      J1 = 0.0 deg, J2 = 0.0 deg 
};
P[14] {
   GP1:
       UF : 6, UT : 5,     CONFIG: 'N U T, 0, 0, 0',
      X = -44.0 mm, Y = -26.3 mm, Z = 89.6 mm,
      W = 0.0 deg, P = 0.0 deg, R = 0.0 deg
   GP2:
       UF : 1, UT : 2,
      J1 = 0.0 deg, J2 = 0.0 deg 
};
P[15] {
   GP1:
       UF : 6, UT : 5,     CONFIG: 'N U T, 0, 0, 0',
      X = 48.7 mm, Y = -119.0 mm, Z = 89.6 mm,
      W = 0.0 deg, P = 0.0 deg, R = 0.0 deg
   GP2:
       UF : 1, UT : 2,
      J1 = 0.0 deg, J2 = 0.0 deg 
};
P[16] {
   GP1:
       UF : 6, UT : 5,     CONFIG: 'N U T, 0, 0, 0',
      X = 48.7 mm, Y = -124.0 mm, Z = 89.6 mm,
      W = 0.0 deg, P = 0.0 deg, R = 0.0 deg
   GP2:
       UF : 1, UT : 2,
      J1 = 0.0 deg, J2 = 0.0 deg 
};
P[17] {
   GP1:
       UF : 6, UT : 5,     CONFIG: 'N U T, 0, 0, 0',
      X = -48.7 mm, Y = -26.3 mm, Z = 89.6 mm,
      W = 0.0 deg, P = 0.0 deg, R = 0.0 deg
   GP2:
       UF : 1, UT : 2,
      J1 = 0.0 deg, J2 = 0.0 deg 
};
P[18] {
   GP1:
       UF : 6, UT : 5,     CONFIG: 'N U T, 0, 0, 0',
      X = -48.7 mm, Y = -31.0 mm, Z = 89.6 mm,
      W = 0.0 deg, P = 0.0 deg, R = 0.0 deg
   GP2:
       UF : 1, UT : 2,
      J1 = 0.0 deg, J2 = 0.0 deg 
};
P[19] {
   GP1:
       UF : 6, UT : 5,     CONFIG: 'N U T, 0, 0, 0',
      X = 44.0 mm, Y = -124.0 mm, Z = 89.6 mm,
      W = 0.0 deg, P = 0.0 deg, R = 0.0 deg
   GP2:
       UF : 1, UT : 2,
      J1 = 0.0 deg, J2 = 0.0 deg 
};
P[20] {
   GP1:
       UF : 6, UT : 5,     CONFIG: 'N U T, 0, 0, 0',
      X = 39.3 mm, Y = -124.0 mm, Z = 89.6 mm,
      W = 0.0 deg, P = 0.0 deg, R = 0.0 deg
   GP2:
       UF : 1, UT : 2,
      J1 = 0.0 deg, J2 = 0.0 deg 
};
P[21] {
   GP1:
       UF : 6, UT : 5,     CONFIG: 'N U T, 0, 0, 0',
      X = -48.7 mm, Y = -35.7 mm, Z = 89.6 mm,
      W = 0.0 deg, P = 0.0 deg, R = 0.0 deg
   GP2:
       UF : 1, UT : 2,
      J1 = 0.0 deg, J2 = 0.0 deg 
};
P[22] {
   GP1:
       UF : 6, UT : 5,     CONFIG: 'N U T, 0, 0, 0',
      X = -48.7 mm, Y = -40.4 mm, Z = 89.6 mm,
      W = 0.0 deg, P = 0.0 deg, R = 0.0 deg
   GP2:
       UF : 1, UT : 2,
      J1 = 0.0 deg, J2 = 0.0 deg 
};
P[23] {
   GP1:
       UF : 6, UT : 5,     CONFIG: 'N U T, 0, 0, 0',
      X = 34.6 mm, Y = -124.0 mm, Z = 89.6 mm,
      W = 0.0 deg, P = 0.0 deg, R = 0.0 deg
   GP2:
       UF : 1, UT : 2,
      J1 = 0.0 deg, J2 = 0.0 deg 
};
P[24] {
   GP1:
       UF : 6, UT : 5,     CONFIG: 'N U T, 0, 0, 0',
      X = 29.9 mm, Y = -124.0 mm, Z = 89.6 mm,
      W = 0.0 deg, P = 0.0 deg, R = 0.0 deg
   GP2:
       UF : 1, UT : 2,
      J1 = 0.0 deg, J2 = 0.0 deg 
};
P[25] {
   GP1:
       UF : 6, UT : 5,     CONFIG: 'N U T, 0, 0, 0',
      X = -48.7 mm, Y = -45.1 mm, Z = 89.6 mm,
      W = 0.0 deg, P = 0.0 deg, R = 0.0 deg
   GP2:
       UF : 1, UT : 2,
      J1 = 0.0 deg, J2 = 0.0 deg 
};
P[26] {
   GP1:
       UF : 6, UT : 5,     CONFIG: 'N U T, 0, 0, 0',
      X = -48.7 mm, Y = -49.8 mm, Z = 89.6 mm,
      W = 0.0 deg, P = 0.0 deg, R = 0.0 deg
   GP2:
       UF : 1, UT : 2,
      J1 = 0.0 deg, J2 = 0.0 deg 
};
P[27] {
   GP1:
       UF : 6, UT : 5,     CONFIG: 'N U T, 0, 0, 0',
      X = 25.2 mm, Y = -124.0 mm, Z = 89.6 mm,
      W = 0.0 deg, P = 0.0 deg, R = 0.0 deg
   GP2:
       UF : 1, UT : 2,
      J1 = 0.0 deg, J2 = 0.0 deg 
};
P[28] {
   GP1:
       UF : 6, UT : 5,     CONFIG: 'N U T, 0, 0, 0',
      X = 20.4 mm, Y = -124.0 mm, Z = 89.6 mm,
      W = 0.0 deg, P = 0.0 deg, R = 0.0 deg
   GP2:
       UF : 1, UT : 2,
      J1 = 0.0 deg, J2 = 0.0 deg 
};
P[29] {
   GP1:
       UF : 6, UT : 5,     CONFIG: 'N U T, 0, 0, 0',
      X = -48.7 mm, Y = -54.6 mm, Z = 89.6 mm,
      W = 0.0 deg, P = 0.0 deg, R = 0.0 deg
   GP2:
       UF : 1, UT : 2,
      J1 = 0.0 deg, J2 = 0.0 deg 
};
P[30] {
   GP1:
       UF : 6, UT : 5,     CONFIG: 'N U T, 0, 0, 0',
      X = -48.7 mm, Y = -59.3 mm, Z = 89.6 mm,
      W = 0.0 deg, P = 0.0 deg, R = 0.0 deg
   GP2:
       UF : 1, UT : 2,
      J1 = 0.0 deg, J2 = 0.0 deg 
};
P[31] {
   GP1:
       UF : 6, UT : 5,     CONFIG: 'N U T, 0, 0, 0',
      X = 15.7 mm, Y = -124.0 mm, Z = 89.6 mm,
      W = 0.0 deg, P = 0.0 deg, R = 0.0 deg
   GP2:
       UF : 1, UT : 2,
      J1 = 0.0 deg, J2 = 0.0 deg 
};
P[32] {
   GP1:
       UF : 6, UT : 5,     CONFIG: 'N U T, 0, 0, 0',
      X = 11.0 mm, Y = -124.0 mm, Z = 89.6 mm,
      W = 0.0 deg, P = 0.0 deg, R = 0.0 deg
   GP2:
       UF : 1, UT : 2,
      J1 = 0.0 deg, J2 = 0.0 deg 
};
P[33] {
   GP1:
       UF : 6, UT : 5,     CONFIG: 'N U T, 0, 0, 0',
      X = -48.7 mm, Y = -64.0 mm, Z = 89.6 mm,
      W = 0.0 deg, P = 0.0 deg, R = 0.0 deg
   GP2:
       UF : 1, UT : 2,
      J1 = 0.0 deg, J2 = 0.0 deg 
};
P[34] {
   GP1:
       UF : 6, UT : 5,     CONFIG: 'N U T, 0, 0, 0',
      X = -48.7 mm, Y = -68.7 mm, Z = 89.6 mm,
      W = 0.0 deg, P = 0.0 deg, R = 0.0 deg
   GP2:
       UF : 1, UT : 2,
      J1 = 0.0 deg, J2 = 0.0 deg 
};
P[35] {
   GP1:
       UF : 6, UT : 5,     CONFIG: 'N U T, 0, 0, 0',
      X = 6.34 mm, Y = -124.0 mm, Z = 89.6 mm,
      W = 0.0 deg, P = 0.0 deg, R = 0.0 deg
   GP2:
       UF : 1, UT : 2,
      J1 = 0.0 deg, J2 = 0.0 deg 
};
P[36] {
   GP1:
       UF : 6, UT : 5,     CONFIG: 'N U T, 0, 0, 0',
      X = 1.64 mm, Y = -124.0 mm, Z = 89.6 mm,
      W = 0.0 deg, P = 0.0 deg, R = 0.0 deg
   GP2:
       UF : 1, UT : 2,
      J1 = 0.0 deg, J2 = 0.0 deg 
};
P[37] {
   GP1:
       UF : 6, UT : 5,     CONFIG: 'N U T, 0, 0, 0',
      X = -48.7 mm, Y = -73.4 mm, Z = 89.6 mm,
      W = 0.0 deg, P = 0.0 deg, R = 0.0 deg
   GP2:
       UF : 1, UT : 2,
      J1 = 0.0 deg, J2 = 0.0 deg 
};
P[38] {
   GP1:
       UF : 6, UT : 5,     CONFIG: 'N U T, 0, 0, 0',
      X = -48.7 mm, Y = -78.1 mm, Z = 89.6 mm,
      W = 0.0 deg, P = 0.0 deg, R = 0.0 deg
   GP2:
       UF : 1, UT : 2,
      J1 = 0.0 deg, J2 = 0.0 deg 
};
P[39] {
   GP1:
       UF : 6, UT : 5,     CONFIG: 'N U T, 0, 0, 0',
      X = -3.06 mm, Y = -124.0 mm, Z = 89.6 mm,
      W = 0.0 deg, P = 0.0 deg, R = 0.0 deg
   GP2:
       UF : 1, UT : 2,
      J1 = 0.0 deg, J2 = 0.0 deg 
};
P[40] {
   GP1:
       UF : 6, UT : 5,     CONFIG: 'N U T, 0, 0, 0',
      X = -7.76 mm, Y = -124.0 mm, Z = 89.6 mm,
      W = 0.0 deg, P = 0.0 deg, R = 0.0 deg
   GP2:
       UF : 1, UT : 2,
      J1 = 0.0 deg, J2 = 0.0 deg 
};
P[41] {
   GP1:
       UF : 6, UT : 5,     CONFIG: 'N U T, 0, 0, 0',
      X = -48.7 mm, Y = -82.8 mm, Z = 89.6 mm,
      W = 0.0 deg, P = 0.0 deg, R = 0.0 deg
   GP2:
       UF : 1, UT : 2,
      J1 = 0.0 deg, J2 = 0.0 deg 
};
P[42] {
   GP1:
       UF : 6, UT : 5,     CONFIG: 'N U T, 0, 0, 0',
      X = -48.7 mm, Y = -87.5 mm, Z = 89.6 mm,
      W = 0.0 deg, P = 0.0 deg, R = 0.0 deg
   GP2:
       UF : 1, UT : 2,
      J1 = 0.0 deg, J2 = 0.0 deg 
};
P[43] {
   GP1:
       UF : 6, UT : 5,     CONFIG: 'N U T, 0, 0, 0',
      X = -12.5 mm, Y = -124.0 mm, Z = 89.6 mm,
      W = 0.0 deg, P = 0.0 deg, R = 0.0 deg
   GP2:
       UF : 1, UT : 2,
      J1 = 0.0 deg, J2 = 0.0 deg 
};
P[44] {
   GP1:
       UF : 6, UT : 5,     CONFIG: 'N U T, 0, 0, 0',
      X = -17.2 mm, Y = -124.0 mm, Z = 89.6 mm,
      W = 0.0 deg, P = 0.0 deg, R = 0.0 deg
   GP2:
       UF : 1, UT : 2,
      J1 = 0.0 deg, J2 = 0.0 deg 
};
P[45] {
   GP1:
       UF : 6, UT : 5,     CONFIG: 'N U T, 0, 0, 0',
      X = -48.7 mm, Y = -92.2 mm, Z = 89.6 mm,
      W = 0.0 deg, P = 0.0 deg, R = 0.0 deg
   GP2:
       UF : 1, UT : 2,
      J1 = 0.0 deg, J2 = 0.0 deg 
};
P[46] {
   GP1:
       UF : 6, UT : 5,     CONFIG: 'N U T, 0, 0, 0',
      X = -48.7 mm, Y = -96.9 mm, Z = 89.6 mm,
      W = 0.0 deg, P = 0.0 deg, R = 0.0 deg
   GP2:
       UF : 1, UT : 2,
      J1 = 0.0 deg, J2 = 0.0 deg 
};
P[47] {
   GP1:
       UF : 6, UT : 5,     CONFIG: 'N U T, 0, 0, 0',
      X = -21.9 mm, Y = -124.0 mm, Z = 89.6 mm,
      W = 0.0 deg, P = 0.0 deg, R = 0.0 deg
   GP2:
       UF : 1, UT : 2,
      J1 = 0.0 deg, J2 = 0.0 deg 
};
P[48] {
   GP1:
       UF : 6, UT : 5,     CONFIG: 'N U T, 0, 0, 0',
      X = -26.6 mm, Y = -124.0 mm, Z = 89.6 mm,
      W = 0.0 deg, P = 0.0 deg, R = 0.0 deg
   GP2:
       UF : 1, UT : 2,
      J1 = 0.0 deg, J2 = 0.0 deg 
};
P[49] {
   GP1:
       UF : 6, UT : 5,     CONFIG: 'N U T, 0, 0, 0',
      X = -48.7 mm, Y = -102.0 mm, Z = 89.6 mm,
      W = 0.0 deg, P = 0.0 deg, R = 0.0 deg
   GP2:
       UF : 1, UT : 2,
      J1 = 0.0 deg, J2 = 0.0 deg 
};
P[50] {
   GP1:
       UF : 6, UT : 5,     CONFIG: 'N U T, 0, 0, 0',
      X = -48.7 mm, Y = -106.0 mm, Z = 89.6 mm,
      W = 0.0 deg, P = 0.0 deg, R = 0.0 deg
   GP2:
       UF : 1, UT : 2,
      J1 = 0.0 deg, J2 = 0.0 deg 
};
P[51] {
   GP1:
       UF : 6, UT : 5,     CONFIG: 'N U T, 0, 0, 0',
      X = -31.3 mm, Y = -124.0 mm, Z = 89.6 mm,
      W = 0.0 deg, P = 0.0 deg, R = 0.0 deg
   GP2:
       UF : 1, UT : 2,
      J1 = 0.0 deg, J2 = 0.0 deg 
};
P[52] {
   GP1:
       UF : 6, UT : 5,     CONFIG: 'N U T, 0, 0, 0',
      X = -36.0 mm, Y = -124.0 mm, Z = 89.6 mm,
      W = 0.0 deg, P = 0.0 deg, R = 0.0 deg
   GP2:
       UF : 1, UT : 2,
      J1 = 0.0 deg, J2 = 0.0 deg 
};
P[53] {
   GP1:
       UF : 6, UT : 5,     CONFIG: 'N U T, 0, 0, 0',
      X = -48.7 mm, Y = -111.0 mm, Z = 89.6 mm,
      W = 0.0 deg, P = 0.0 deg, R = 0.0 deg
   GP2:
       UF : 1, UT : 2,
      J1 = 0.0 deg, J2 = 0.0 deg 
};
P[54] {
   GP1:
       UF : 6, UT : 5,     CONFIG: 'N U T, 0, 0, 0',
      X = -48.7 mm, Y = -116.0 mm, Z = 89.6 mm,
      W = 0.0 deg, P = 0.0 deg, R = 0.0 deg
   GP2:
       UF : 1, UT : 2,
      J1 = 0.0 deg, J2 = 0.0 deg 
};
P[55] {
   GP1:
       UF : 6, UT : 5,     CONFIG: 'N U T, 0, 0, 0',
      X = -40.7 mm, Y = -124.0 mm, Z = 89.6 mm,
      W = 0.0 deg, P = 0.0 deg, R = 0.0 deg
   GP2:
       UF : 1, UT : 2,
      J1 = 0.0 deg, J2 = 0.0 deg 
};
P[56] {
   GP1:
       UF : 6, UT : 5,     CONFIG: 'N U T, 0, 0, 0',
      X = -45.4 mm, Y = -124.0 mm, Z = 89.6 mm,
      W = 0.0 deg, P = 0.0 deg, R = 0.0 deg
   GP2:
       UF : 1, UT : 2,
      J1 = 0.0 deg, J2 = 0.0 deg 
};
P[57] {
   GP1:
       UF : 6, UT : 5,     CONFIG: 'N U T, 0, 0, 0',
      X = -48.7 mm, Y = -120.0 mm, Z = 89.6 mm,
      W = 0.0 deg, P = 0.0 deg, R = 0.0 deg
   GP2:
       UF : 1, UT : 2,
      J1 = 0.0 deg, J2 = 0.0 deg 
};
P[58] {
   GP1:
       UF : 6, UT : 5,     CONFIG: 'N U T, 0, 0, 0',
      X = -48.7 mm, Y = -120.0 mm, Z = 92.9 mm,
      W = 0.0 deg, P = 0.0 deg, R = 0.0 deg
   GP2:
       UF : 1, UT : 2,
      J1 = 0.0 deg, J2 = 0.0 deg 
};
P[59] {
   GP1:
       UF : 6, UT : 5,     CONFIG: 'N U T, 0, 0, 0',
      X = -48.8 mm, Y = -124.0 mm, Z = 92.9 mm,
      W = 0.0 deg, P = 0.0 deg, R = 0.0 deg
   GP2:
       UF : 1, UT : 2,
      J1 = 0.0 deg, J2 = 0.0 deg 
};
P[60] {
   GP1:
       UF : 6, UT : 5,     CONFIG: 'N U T, 0, 0, 0',
      X = 48.8 mm, Y = -124.0 mm, Z = 92.9 mm,
      W = 0.0 deg, P = 0.0 deg, R = 0.0 deg
   GP2:
       UF : 1, UT : 2,
      J1 = 0.0 deg, J2 = 0.0 deg 
};
P[61] {
   GP1:
       UF : 6, UT : 5,     CONFIG: 'N U T, 0, 0, 0',
      X = 48.8 mm, Y = -26.2 mm, Z = 92.9 mm,
      W = 0.0 deg, P = 0.0 deg, R = 0.0 deg
   GP2:
       UF : 1, UT : 2,
      J1 = 0.0 deg, J2 = 0.0 deg 
};
P[62] {
   GP1:
       UF : 6, UT : 5,     CONFIG: 'N U T, 0, 0, 0',
      X = -48.8 mm, Y = -26.2 mm, Z = 92.9 mm,
      W = 0.0 deg, P = 0.0 deg, R = 0.0 deg
   GP2:
       UF : 1, UT : 2,
      J1 = 0.0 deg, J2 = 0.0 deg 
};
P[63] {
   GP1:
       UF : 6, UT : 5,     CONFIG: 'N U T, 0, 0, 0',
      X = -48.8 mm, Y = -124.0 mm, Z = 92.9 mm,
      W = 0.0 deg, P = 0.0 deg, R = 0.0 deg
   GP2:
       UF : 1, UT : 2,
      J1 = 0.0 deg, J2 = 0.0 deg 
};
P[64] {
   GP1:
       UF : 6, UT : 5,     CONFIG: 'N U T, 0, 0, 0',
      X = 45.4 mm, Y = -124.0 mm, Z = 92.9 mm,
      W = 0.0 deg, P = 0.0 deg, R = 0.0 deg
   GP2:
       UF : 1, UT : 2,
      J1 = 0.0 deg, J2 = 0.0 deg 
};
P[65] {
   GP1:
       UF : 6, UT : 5,     CONFIG: 'N U T, 0, 0, 0',
      X = 48.7 mm, Y = -120.0 mm, Z = 92.9 mm,
      W = 0.0 deg, P = 0.0 deg, R = 0.0 deg
   GP2:
       UF : 1, UT : 2,
      J1 = 0.0 deg, J2 = 0.0 deg 
};
P[66] {
   GP1:
       UF : 6, UT : 5,     CONFIG: 'N U T, 0, 0, 0',
      X = 48.7 mm, Y = -116.0 mm, Z = 92.9 mm,
      W = 0.0 deg, P = 0.0 deg, R = 0.0 deg
   GP2:
       UF : 1, UT : 2,
      J1 = 0.0 deg, J2 = 0.0 deg 
};
P[67] {
   GP1:
       UF : 6, UT : 5,     CONFIG: 'N U T, 0, 0, 0',
      X = 40.7 mm, Y = -124.0 mm, Z = 92.9 mm,
      W = 0.0 deg, P = 0.0 deg, R = 0.0 deg
   GP2:
       UF : 1, UT : 2,
      J1 = 0.0 deg, J2 = 0.0 deg 
};
P[68] {
   GP1:
       UF : 6, UT : 5,     CONFIG: 'N U T, 0, 0, 0',
      X = 36.0 mm, Y = -124.0 mm, Z = 92.9 mm,
      W = 0.0 deg, P = 0.0 deg, R = 0.0 deg
   GP2:
       UF : 1, UT : 2,
      J1 = 0.0 deg, J2 = 0.0 deg 
};
P[69] {
   GP1:
       UF : 6, UT : 5,     CONFIG: 'N U T, 0, 0, 0',
      X = 48.7 mm, Y = -111.0 mm, Z = 92.9 mm,
      W = 0.0 deg, P = 0.0 deg, R = 0.0 deg
   GP2:
       UF : 1, UT : 2,
      J1 = 0.0 deg, J2 = 0.0 deg 
};
P[70] {
   GP1:
       UF : 6, UT : 5,     CONFIG: 'N U T, 0, 0, 0',
      X = 48.7 mm, Y = -106.0 mm, Z = 92.9 mm,
      W = 0.0 deg, P = 0.0 deg, R = 0.0 deg
   GP2:
       UF : 1, UT : 2,
      J1 = 0.0 deg, J2 = 0.0 deg 
};
P[71] {
   GP1:
       UF : 6, UT : 5,     CONFIG: 'N U T, 0, 0, 0',
      X = 31.3 mm, Y = -124.0 mm, Z = 92.9 mm,
      W = 0.0 deg, P = 0.0 deg, R = 0.0 deg
   GP2:
       UF : 1, UT : 2,
      J1 = 0.0 deg, J2 = 0.0 deg 
};
P[72] {
   GP1:
       UF : 6, UT : 5,     CONFIG: 'N U T, 0, 0, 0',
      X = 26.6 mm, Y = -124.0 mm, Z = 92.9 mm,
      W = 0.0 deg, P = 0.0 deg, R = 0.0 deg
   GP2:
       UF : 1, UT : 2,
      J1 = 0.0 deg, J2 = 0.0 deg 
};
P[73] {
   GP1:
       UF : 6, UT : 5,     CONFIG: 'N U T, 0, 0, 0',
      X = 48.7 mm, Y = -102.0 mm, Z = 92.9 mm,
      W = 0.0 deg, P = 0.0 deg, R = 0.0 deg
   GP2:
       UF : 1, UT : 2,
      J1 = 0.0 deg, J2 = 0.0 deg 
};
P[74] {
   GP1:
       UF : 6, UT : 5,     CONFIG: 'N U T, 0, 0, 0',
      X = 48.7 mm, Y = -96.9 mm, Z = 92.9 mm,
      W = 0.0 deg, P = 0.0 deg, R = 0.0 deg
   GP2:
       UF : 1, UT : 2,
      J1 = 0.0 deg, J2 = 0.0 deg 
};
P[75] {
   GP1:
       UF : 6, UT : 5,     CONFIG: 'N U T, 0, 0, 0',
      X = 21.9 mm, Y = -124.0 mm, Z = 92.9 mm,
      W = 0.0 deg, P = 0.0 deg, R = 0.0 deg
   GP2:
       UF : 1, UT : 2,
      J1 = 0.0 deg, J2 = 0.0 deg 
};
P[76] {
   GP1:
       UF : 6, UT : 5,     CONFIG: 'N U T, 0, 0, 0',
      X = 17.2 mm, Y = -124.0 mm, Z = 92.9 mm,
      W = 0.0 deg, P = 0.0 deg, R = 0.0 deg
   GP2:
       UF : 1, UT : 2,
      J1 = 0.0 deg, J2 = 0.0 deg 
};
P[77] {
   GP1:
       UF : 6, UT : 5,     CONFIG: 'N U T, 0, 0, 0',
      X = 48.7 mm, Y = -92.2 mm, Z = 92.9 mm,
      W = 0.0 deg, P = 0.0 deg, R = 0.0 deg
   GP2:
       UF : 1, UT : 2,
      J1 = 0.0 deg, J2 = 0.0 deg 
};
P[78] {
   GP1:
       UF : 6, UT : 5,     CONFIG: 'N U T, 0, 0, 0',
      X = 48.7 mm, Y = -87.5 mm, Z = 92.9 mm,
      W = 0.0 deg, P = 0.0 deg, R = 0.0 deg
   GP2:
       UF : 1, UT : 2,
      J1 = 0.0 deg, J2 = 0.0 deg 
};
P[79] {
   GP1:
       UF : 6, UT : 5,     CONFIG: 'N U T, 0, 0, 0',
      X = 12.5 mm, Y = -124.0 mm, Z = 92.9 mm,
      W = 0.0 deg, P = 0.0 deg, R = 0.0 deg
   GP2:
       UF : 1, UT : 2,
      J1 = 0.0 deg, J2 = 0.0 deg 
};
P[80] {
   GP1:
       UF : 6, UT : 5,     CONFIG: 'N U T, 0, 0, 0',
      X = 7.76 mm, Y = -124.0 mm, Z = 92.9 mm,
      W = 0.0 deg, P = 0.0 deg, R = 0.0 deg
   GP2:
       UF : 1, UT : 2,
      J1 = 0.0 deg, J2 = 0.0 deg 
};
P[81] {
   GP1:
       UF : 6, UT : 5,     CONFIG: 'N U T, 0, 0, 0',
      X = 48.7 mm, Y = -82.8 mm, Z = 92.9 mm,
      W = 0.0 deg, P = 0.0 deg, R = 0.0 deg
   GP2:
       UF : 1, UT : 2,
      J1 = 0.0 deg, J2 = 0.0 deg 
};
P[82] {
   GP1:
       UF : 6, UT : 5,     CONFIG: 'N U T, 0, 0, 0',
      X = 48.7 mm, Y = -78.1 mm, Z = 92.9 mm,
      W = 0.0 deg, P = 0.0 deg, R = 0.0 deg
   GP2:
       UF : 1, UT : 2,
      J1 = 0.0 deg, J2 = 0.0 deg 
};
P[83] {
   GP1:
       UF : 6, UT : 5,     CONFIG: 'N U T, 0, 0, 0',
      X = 3.06 mm, Y = -124.0 mm, Z = 92.9 mm,
      W = 0.0 deg, P = 0.0 deg, R = 0.0 deg
   GP2:
       UF : 1, UT : 2,
      J1 = 0.0 deg, J2 = 0.0 deg 
};
P[84] {
   GP1:
       UF : 6, UT : 5,     CONFIG: 'N U T, 0, 0, 0',
      X = -1.64 mm, Y = -124.0 mm, Z = 92.9 mm,
      W = 0.0 deg, P = 0.0 deg, R = 0.0 deg
   GP2:
       UF : 1, UT : 2,
      J1 = 0.0 deg, J2 = 0.0 deg 
};
P[85] {
   GP1:
       UF : 6, UT : 5,     CONFIG: 'N U T, 0, 0, 0',
      X = 48.7 mm, Y = -73.4 mm, Z = 92.9 mm,
      W = 0.0 deg, P = 0.0 deg, R = 0.0 deg
   GP2:
       UF : 1, UT : 2,
      J1 = 0.0 deg, J2 = 0.0 deg 
};
P[86] {
   GP1:
       UF : 6, UT : 5,     CONFIG: 'N U T, 0, 0, 0',
      X = 48.7 mm, Y = -68.7 mm, Z = 92.9 mm,
      W = 0.0 deg, P = 0.0 deg, R = 0.0 deg
   GP2:
       UF : 1, UT : 2,
      J1 = 0.0 deg, J2 = 0.0 deg 
};
P[87] {
   GP1:
       UF : 6, UT : 5,     CONFIG: 'N U T, 0, 0, 0',
      X = -6.34 mm, Y = -124.0 mm, Z = 92.9 mm,
      W = 0.0 deg, P = 0.0 deg, R = 0.0 deg
   GP2:
       UF : 1, UT : 2,
      J1 = 0.0 deg, J2 = 0.0 deg 
};
P[88] {
   GP1:
       UF : 6, UT : 5,     CONFIG: 'N U T, 0, 0, 0',
      X = -11.0 mm, Y = -124.0 mm, Z = 92.9 mm,
      W = 0.0 deg, P = 0.0 deg, R = 0.0 deg
   GP2:
       UF : 1, UT : 2,
      J1 = 0.0 deg, J2 = 0.0 deg 
};
P[89] {
   GP1:
       UF : 6, UT : 5,     CONFIG: 'N U T, 0, 0, 0',
      X = 48.7 mm, Y = -64.0 mm, Z = 92.9 mm,
      W = 0.0 deg, P = 0.0 deg, R = 0.0 deg
   GP2:
       UF : 1, UT : 2,
      J1 = 0.0 deg, J2 = 0.0 deg 
};
P[90] {
   GP1:
       UF : 6, UT : 5,     CONFIG: 'N U T, 0, 0, 0',
      X = 48.7 mm, Y = -59.3 mm, Z = 92.9 mm,
      W = 0.0 deg, P = 0.0 deg, R = 0.0 deg
   GP2:
       UF : 1, UT : 2,
      J1 = 0.0 deg, J2 = 0.0 deg 
};
P[91] {
   GP1:
       UF : 6, UT : 5,     CONFIG: 'N U T, 0, 0, 0',
      X = -15.7 mm, Y = -124.0 mm, Z = 92.9 mm,
      W = 0.0 deg, P = 0.0 deg, R = 0.0 deg
   GP2:
       UF : 1, UT : 2,
      J1 = 0.0 deg, J2 = 0.0 deg 
};
P[92] {
   GP1:
       UF : 6, UT : 5,     CONFIG: 'N U T, 0, 0, 0',
      X = -20.4 mm, Y = -124.0 mm, Z = 92.9 mm,
      W = 0.0 deg, P = 0.0 deg, R = 0.0 deg
   GP2:
       UF : 1, UT : 2,
      J1 = 0.0 deg, J2 = 0.0 deg 
};
P[93] {
   GP1:
       UF : 6, UT : 5,     CONFIG: 'N U T, 0, 0, 0',
      X = 48.7 mm, Y = -54.6 mm, Z = 92.9 mm,
      W = 0.0 deg, P = 0.0 deg, R = 0.0 deg
   GP2:
       UF : 1, UT : 2,
      J1 = 0.0 deg, J2 = 0.0 deg 
};
P[94] {
   GP1:
       UF : 6, UT : 5,     CONFIG: 'N U T, 0, 0, 0',
      X = 48.7 mm, Y = -49.8 mm, Z = 92.9 mm,
      W = 0.0 deg, P = 0.0 deg, R = 0.0 deg
   GP2:
       UF : 1, UT : 2,
      J1 = 0.0 deg, J2 = 0.0 deg 
};
P[95] {
   GP1:
       UF : 6, UT : 5,     CONFIG: 'N U T, 0, 0, 0',
      X = -25.2 mm, Y = -124.0 mm, Z = 92.9 mm,
      W = 0.0 deg, P = 0.0 deg, R = 0.0 deg
   GP2:
       UF : 1, UT : 2,
      J1 = 0.0 deg, J2 = 0.0 deg 
};
P[96] {
   GP1:
       UF : 6, UT : 5,     CONFIG: 'N U T, 0, 0, 0',
      X = -29.9 mm, Y = -124.0 mm, Z = 92.9 mm,
      W = 0.0 deg, P = 0.0 deg, R = 0.0 deg
   GP2:
       UF : 1, UT : 2,
      J1 = 0.0 deg, J2 = 0.0 deg 
};
P[97] {
   GP1:
       UF : 6, UT : 5,     CONFIG: 'N U T, 0, 0, 0',
      X = 48.7 mm, Y = -45.1 mm, Z = 92.9 mm,
      W = 0.0 deg, P = 0.0 deg, R = 0.0 deg
   GP2:
       UF : 1, UT : 2,
      J1 = 0.0 deg, J2 = 0.0 deg 
};
P[98] {
   GP1:
       UF : 6, UT : 5,     CONFIG: 'N U T, 0, 0, 0',
      X = 48.7 mm, Y = -40.4 mm, Z = 92.9 mm,
      W = 0.0 deg, P = 0.0 deg, R = 0.0 deg
   GP2:
       UF : 1, UT : 2,
      J1 = 0.0 deg, J2 = 0.0 deg 
};
P[99] {
   GP1:
       UF : 6, UT : 5,     CONFIG: 'N U T, 0, 0, 0',
      X = -34.6 mm, Y = -124.0 mm, Z = 92.9 mm,
      W = 0.0 deg, P = 0.0 deg, R = 0.0 deg
   GP2:
       UF : 1, UT : 2,
      J1 = 0.0 deg, J2 = 0.0 deg 
};
P[100] {
   GP1:
       UF : 6, UT : 5,     CONFIG: 'N U T, 0, 0, 0',
      X = -39.3 mm, Y = -124.0 mm, Z = 92.9 mm,
      W = 0.0 deg, P = 0.0 deg, R = 0.0 deg
   GP2:
       UF : 1, UT : 2,
      J1 = 0.0 deg, J2 = 0.0 deg 
};
P[101] {
   GP1:
       UF : 6, UT : 5,     CONFIG: 'N U T, 0, 0, 0',
      X = 48.7 mm, Y = -35.7 mm, Z = 92.9 mm,
      W = 0.0 deg, P = 0.0 deg, R = 0.0 deg
   GP2:
       UF : 1, UT : 2,
      J1 = 0.0 deg, J2 = 0.0 deg 
};
P[102] {
   GP1:
       UF : 6, UT : 5,     CONFIG: 'N U T, 0, 0, 0',
      X = 48.7 mm, Y = -31.0 mm, Z = 92.9 mm,
      W = 0.0 deg, P = 0.0 deg, R = 0.0 deg
   GP2:
       UF : 1, UT : 2,
      J1 = 0.0 deg, J2 = 0.0 deg 
};
P[103] {
   GP1:
       UF : 6, UT : 5,     CONFIG: 'N U T, 0, 0, 0',
      X = -44.0 mm, Y = -124.0 mm, Z = 92.9 mm,
      W = 0.0 deg, P = 0.0 deg, R = 0.0 deg
   GP2:
       UF : 1, UT : 2,
      J1 = 0.0 deg, J2 = 0.0 deg 
};
P[104] {
   GP1:
       UF : 6, UT : 5,     CONFIG: 'N U T, 0, 0, 0',
      X = -48.7 mm, Y = -124.0 mm, Z = 92.9 mm,
      W = 0.0 deg, P = 0.0 deg, R = 0.0 deg
   GP2:
       UF : 1, UT : 2,
      J1 = 0.0 deg, J2 = 0.0 deg 
};
P[105] {
   GP1:
       UF : 6, UT : 5,     CONFIG: 'N U T, 0, 0, 0',
      X = 48.7 mm, Y = -26.3 mm, Z = 92.9 mm,
      W = 0.0 deg, P = 0.0 deg, R = 0.0 deg
   GP2:
       UF : 1, UT : 2,
      J1 = 0.0 deg, J2 = 0.0 deg 
};
P[106] {
   GP1:
       UF : 6, UT : 5,     CONFIG: 'N U T, 0, 0, 0',
      X = 44.0 mm, Y = -26.3 mm, Z = 92.9 mm,
      W = 0.0 deg, P = 0.0 deg, R = 0.0 deg
   GP2:
       UF : 1, UT : 2,
      J1 = 0.0 deg, J2 = 0.0 deg 
};
P[107] {
   GP1:
       UF : 6, UT : 5,     CONFIG: 'N U T, 0, 0, 0',
      X = -48.7 mm, Y = -119.0 mm, Z = 92.9 mm,
      W = 0.0 deg, P = 0.0 deg, R = 0.0 deg
   GP2:
       UF : 1, UT : 2,
      J1 = 0.0 deg, J2 = 0.0 deg 
};
P[108] {
   GP1:
       UF : 6, UT : 5,     CONFIG: 'N U T, 0, 0, 0',
      X = -48.7 mm, Y = -114.0 mm, Z = 92.9 mm,
      W = 0.0 deg, P = 0.0 deg, R = 0.0 deg
   GP2:
       UF : 1, UT : 2,
      J1 = 0.0 deg, J2 = 0.0 deg 
};
P[109] {
   GP1:
       UF : 6, UT : 5,     CONFIG: 'N U T, 0, 0, 0',
      X = 39.3 mm, Y = -26.3 mm, Z = 92.9 mm,
      W = 0.0 deg, P = 0.0 deg, R = 0.0 deg
   GP2:
       UF : 1, UT : 2,
      J1 = 0.0 deg, J2 = 0.0 deg 
};
P[110] {
   GP1:
       UF : 6, UT : 5,     CONFIG: 'N U T, 0, 0, 0',
      X = 34.6 mm, Y = -26.3 mm, Z = 92.9 mm,
      W = 0.0 deg, P = 0.0 deg, R = 0.0 deg
   GP2:
       UF : 1, UT : 2,
      J1 = 0.0 deg, J2 = 0.0 deg 
};
P[111] {
   GP1:
       UF : 6, UT : 5,     CONFIG: 'N U T, 0, 0, 0',
      X = -48.7 mm, Y = -110.0 mm, Z = 92.9 mm,
      W = 0.0 deg, P = 0.0 deg, R = 0.0 deg
   GP2:
       UF : 1, UT : 2,
      J1 = 0.0 deg, J2 = 0.0 deg 
};
P[112] {
   GP1:
       UF : 6, UT : 5,     CONFIG: 'N U T, 0, 0, 0',
      X = -48.7 mm, Y = -105.0 mm, Z = 92.9 mm,
      W = 0.0 deg, P = 0.0 deg, R = 0.0 deg
   GP2:
       UF : 1, UT : 2,
      J1 = 0.0 deg, J2 = 0.0 deg 
};
P[113] {
   GP1:
       UF : 6, UT : 5,     CONFIG: 'N U T, 0, 0, 0',
      X = 29.9 mm, Y = -26.3 mm, Z = 92.9 mm,
      W = 0.0 deg, P = 0.0 deg, R = 0.0 deg
   GP2:
       UF : 1, UT : 2,
      J1 = 0.0 deg, J2 = 0.0 deg 
};
P[114] {
   GP1:
       UF : 6, UT : 5,     CONFIG: 'N U T, 0, 0, 0',
      X = 25.2 mm, Y = -26.3 mm, Z = 92.9 mm,
      W = 0.0 deg, P = 0.0 deg, R = 0.0 deg
   GP2:
       UF : 1, UT : 2,
      J1 = 0.0 deg, J2 = 0.0 deg 
};
P[115] {
   GP1:
       UF : 6, UT : 5,     CONFIG: 'N U T, 0, 0, 0',
      X = -48.7 mm, Y = -100.0 mm, Z = 92.9 mm,
      W = 0.0 deg, P = 0.0 deg, R = 0.0 deg
   GP2:
       UF : 1, UT : 2,
      J1 = 0.0 deg, J2 = 0.0 deg 
};
P[116] {
   GP1:
       UF : 6, UT : 5,     CONFIG: 'N U T, 0, 0, 0',
      X = -48.7 mm, Y = -95.4 mm, Z = 92.9 mm,
      W = 0.0 deg, P = 0.0 deg, R = 0.0 deg
   GP2:
       UF : 1, UT : 2,
      J1 = 0.0 deg, J2 = 0.0 deg 
};
P[117] {
   GP1:
       UF : 6, UT : 5,     CONFIG: 'N U T, 0, 0, 0',
      X = 20.4 mm, Y = -26.3 mm, Z = 92.9 mm,
      W = 0.0 deg, P = 0.0 deg, R = 0.0 deg
   GP2:
       UF : 1, UT : 2,
      J1 = 0.0 deg, J2 = 0.0 deg 
};
P[118] {
   GP1:
       UF : 6, UT : 5,     CONFIG: 'N U T, 0, 0, 0',
      X = 15.7 mm, Y = -26.3 mm, Z = 92.9 mm,
      W = 0.0 deg, P = 0.0 deg, R = 0.0 deg
   GP2:
       UF : 1, UT : 2,
      J1 = 0.0 deg, J2 = 0.0 deg 
};
P[119] {
   GP1:
       UF : 6, UT : 5,     CONFIG: 'N U T, 0, 0, 0',
      X = -48.7 mm, Y = -90.7 mm, Z = 92.9 mm,
      W = 0.0 deg, P = 0.0 deg, R = 0.0 deg
   GP2:
       UF : 1, UT : 2,
      J1 = 0.0 deg, J2 = 0.0 deg 
};
P[120] {
   GP1:
       UF : 6, UT : 5,     CONFIG: 'N U T, 0, 0, 0',
      X = -48.7 mm, Y = -86.0 mm, Z = 92.9 mm,
      W = 0.0 deg, P = 0.0 deg, R = 0.0 deg
   GP2:
       UF : 1, UT : 2,
      J1 = 0.0 deg, J2 = 0.0 deg 
};
P[121] {
   GP1:
       UF : 6, UT : 5,     CONFIG: 'N U T, 0, 0, 0',
      X = 11.0 mm, Y = -26.3 mm, Z = 92.9 mm,
      W = 0.0 deg, P = 0.0 deg, R = 0.0 deg
   GP2:
       UF : 1, UT : 2,
      J1 = 0.0 deg, J2 = 0.0 deg 
};
P[122] {
   GP1:
       UF : 6, UT : 5,     CONFIG: 'N U T, 0, 0, 0',
      X = 6.34 mm, Y = -26.3 mm, Z = 92.9 mm,
      W = 0.0 deg, P = 0.0 deg, R = 0.0 deg
   GP2:
       UF : 1, UT : 2,
      J1 = 0.0 deg, J2 = 0.0 deg 
};
P[123] {
   GP1:
       UF : 6, UT : 5,     CONFIG: 'N U T, 0, 0, 0',
      X = -48.7 mm, Y = -81.3 mm, Z = 92.9 mm,
      W = 0.0 deg, P = 0.0 deg, R = 0.0 deg
   GP2:
       UF : 1, UT : 2,
      J1 = 0.0 deg, J2 = 0.0 deg 
};
P[124] {
   GP1:
       UF : 6, UT : 5,     CONFIG: 'N U T, 0, 0, 0',
      X = -48.7 mm, Y = -76.6 mm, Z = 92.9 mm,
      W = 0.0 deg, P = 0.0 deg, R = 0.0 deg
   GP2:
       UF : 1, UT : 2,
      J1 = 0.0 deg, J2 = 0.0 deg 
};
P[125] {
   GP1:
       UF : 6, UT : 5,     CONFIG: 'N U T, 0, 0, 0',
      X = 1.64 mm, Y = -26.3 mm, Z = 92.9 mm,
      W = 0.0 deg, P = 0.0 deg, R = 0.0 deg
   GP2:
       UF : 1, UT : 2,
      J1 = 0.0 deg, J2 = 0.0 deg 
};
P[126] {
   GP1:
       UF : 6, UT : 5,     CONFIG: 'N U T, 0, 0, 0',
      X = -3.06 mm, Y = -26.3 mm, Z = 92.9 mm,
      W = 0.0 deg, P = 0.0 deg, R = 0.0 deg
   GP2:
       UF : 1, UT : 2,
      J1 = 0.0 deg, J2 = 0.0 deg 
};
P[127] {
   GP1:
       UF : 6, UT : 5,     CONFIG: 'N U T, 0, 0, 0',
      X = -48.7 mm, Y = -71.9 mm, Z = 92.9 mm,
      W = 0.0 deg, P = 0.0 deg, R = 0.0 deg
   GP2:
       UF : 1, UT : 2,
      J1 = 0.0 deg, J2 = 0.0 deg 
};
P[128] {
   GP1:
       UF : 6, UT : 5,     CONFIG: 'N U T, 0, 0, 0',
      X = -48.7 mm, Y = -67.2 mm, Z = 92.9 mm,
      W = 0.0 deg, P = 0.0 deg, R = 0.0 deg
   GP2:
       UF : 1, UT : 2,
      J1 = 0.0 deg, J2 = 0.0 deg 
};
P[129] {
   GP1:
       UF : 6, UT : 5,     CONFIG: 'N U T, 0, 0, 0',
      X = -7.76 mm, Y = -26.3 mm, Z = 92.9 mm,
      W = 0.0 deg, P = 0.0 deg, R = 0.0 deg
   GP2:
       UF : 1, UT : 2,
      J1 = 0.0 deg, J2 = 0.0 deg 
};
P[130] {
   GP1:
       UF : 6, UT : 5,     CONFIG: 'N U T, 0, 0, 0',
      X = -12.5 mm, Y = -26.3 mm, Z = 92.9 mm,
      W = 0.0 deg, P = 0.0 deg, R = 0.0 deg
   GP2:
       UF : 1, UT : 2,
      J1 = 0.0 deg, J2 = 0.0 deg 
};
P[131] {
   GP1:
       UF : 6, UT : 5,     CONFIG: 'N U T, 0, 0, 0',
      X = -48.7 mm, Y = -62.5 mm, Z = 92.9 mm,
      W = 0.0 deg, P = 0.0 deg, R = 0.0 deg
   GP2:
       UF : 1, UT : 2,
      J1 = 0.0 deg, J2 = 0.0 deg 
};
P[132] {
   GP1:
       UF : 6, UT : 5,     CONFIG: 'N U T, 0, 0, 0',
      X = -48.7 mm, Y = -57.8 mm, Z = 92.9 mm,
      W = 0.0 deg, P = 0.0 deg, R = 0.0 deg
   GP2:
       UF : 1, UT : 2,
      J1 = 0.0 deg, J2 = 0.0 deg 
};
P[133] {
   GP1:
       UF : 6, UT : 5,     CONFIG: 'N U T, 0, 0, 0',
      X = -17.2 mm, Y = -26.3 mm, Z = 92.9 mm,
      W = 0.0 deg, P = 0.0 deg, R = 0.0 deg
   GP2:
       UF : 1, UT : 2,
      J1 = 0.0 deg, J2 = 0.0 deg 
};
P[134] {
   GP1:
       UF : 6, UT : 5,     CONFIG: 'N U T, 0, 0, 0',
      X = -21.9 mm, Y = -26.3 mm, Z = 92.9 mm,
      W = 0.0 deg, P = 0.0 deg, R = 0.0 deg
   GP2:
       UF : 1, UT : 2,
      J1 = 0.0 deg, J2 = 0.0 deg 
};
P[135] {
   GP1:
       UF : 6, UT : 5,     CONFIG: 'N U T, 0, 0, 0',
      X = -48.7 mm, Y = -53.1 mm, Z = 92.9 mm,
      W = 0.0 deg, P = 0.0 deg, R = 0.0 deg
   GP2:
       UF : 1, UT : 2,
      J1 = 0.0 deg, J2 = 0.0 deg 
};
P[136] {
   GP1:
       UF : 6, UT : 5,     CONFIG: 'N U T, 0, 0, 0',
      X = -48.7 mm, Y = -48.4 mm, Z = 92.9 mm,
      W = 0.0 deg, P = 0.0 deg, R = 0.0 deg
   GP2:
       UF : 1, UT : 2,
      J1 = 0.0 deg, J2 = 0.0 deg 
};
P[137] {
   GP1:
       UF : 6, UT : 5,     CONFIG: 'N U T, 0, 0, 0',
      X = -26.6 mm, Y = -26.3 mm, Z = 92.9 mm,
      W = 0.0 deg, P = 0.0 deg, R = 0.0 deg
   GP2:
       UF : 1, UT : 2,
      J1 = 0.0 deg, J2 = 0.0 deg 
};
P[138] {
   GP1:
       UF : 6, UT : 5,     CONFIG: 'N U T, 0, 0, 0',
      X = -31.3 mm, Y = -26.3 mm, Z = 92.9 mm,
      W = 0.0 deg, P = 0.0 deg, R = 0.0 deg
   GP2:
       UF : 1, UT : 2,
      J1 = 0.0 deg, J2 = 0.0 deg 
};
P[139] {
   GP1:
       UF : 6, UT : 5,     CONFIG: 'N U T, 0, 0, 0',
      X = -48.7 mm, Y = -43.7 mm, Z = 92.9 mm,
      W = 0.0 deg, P = 0.0 deg, R = 0.0 deg
   GP2:
       UF : 1, UT : 2,
      J1 = 0.0 deg, J2 = 0.0 deg 
};
P[140] {
   GP1:
       UF : 6, UT : 5,     CONFIG: 'N U T, 0, 0, 0',
      X = -48.7 mm, Y = -39.0 mm, Z = 92.9 mm,
      W = 0.0 deg, P = 0.0 deg, R = 0.0 deg
   GP2:
       UF : 1, UT : 2,
      J1 = 0.0 deg, J2 = 0.0 deg 
};
P[141] {
   GP1:
       UF : 6, UT : 5,     CONFIG: 'N U T, 0, 0, 0',
      X = -36.0 mm, Y = -26.3 mm, Z = 92.9 mm,
      W = 0.0 deg, P = 0.0 deg, R = 0.0 deg
   GP2:
       UF : 1, UT : 2,
      J1 = 0.0 deg, J2 = 0.0 deg 
};
P[142] {
   GP1:
       UF : 6, UT : 5,     CONFIG: 'N U T, 0, 0, 0',
      X = -40.7 mm, Y = -26.3 mm, Z = 92.9 mm,
      W = 0.0 deg, P = 0.0 deg, R = 0.0 deg
   GP2:
       UF : 1, UT : 2,
      J1 = 0.0 deg, J2 = 0.0 deg 
};
P[143] {
   GP1:
       UF : 6, UT : 5,     CONFIG: 'N U T, 0, 0, 0',
      X = -48.7 mm, Y = -34.3 mm, Z = 92.9 mm,
      W = 0.0 deg, P = 0.0 deg, R = 0.0 deg
   GP2:
       UF : 1, UT : 2,
      J1 = 0.0 deg, J2 = 0.0 deg 
};
P[144] {
   GP1:
       UF : 6, UT : 5,     CONFIG: 'N U T, 0, 0, 0',
      X = -48.7 mm, Y = -29.6 mm, Z = 92.9 mm,
      W = 0.0 deg, P = 0.0 deg, R = 0.0 deg
   GP2:
       UF : 1, UT : 2,
      J1 = 0.0 deg, J2 = 0.0 deg 
};
P[145] {
   GP1:
       UF : 6, UT : 5,     CONFIG: 'N U T, 0, 0, 0',
      X = -45.4 mm, Y = -26.3 mm, Z = 92.9 mm,
      W = 0.0 deg, P = 0.0 deg, R = 0.0 deg
   GP2:
       UF : 1, UT : 2,
      J1 = 0.0 deg, J2 = 0.0 deg 
};
P[146] {
   GP1:
       UF : 6, UT : 5,     CONFIG: 'N U T, 0, 0, 0',
      X = -45.4 mm, Y = -26.3 mm, Z = 96.2 mm,
      W = 0.0 deg, P = 0.0 deg, R = 0.0 deg
   GP2:
       UF : 1, UT : 2,
      J1 = 0.0 deg, J2 = 0.0 deg 
};
P[147] {
   GP1:
       UF : 6, UT : 5,     CONFIG: 'N U T, 0, 0, 0',
      X = -48.8 mm, Y = -124.0 mm, Z = 96.2 mm,
      W = 0.0 deg, P = 0.0 deg, R = 0.0 deg
   GP2:
       UF : 1, UT : 2,
      J1 = 0.0 deg, J2 = 0.0 deg 
};
P[148] {
   GP1:
       UF : 6, UT : 5,     CONFIG: 'N U T, 0, 0, 0',
      X = 48.8 mm, Y = -124.0 mm, Z = 96.2 mm,
      W = 0.0 deg, P = 0.0 deg, R = 0.0 deg
   GP2:
       UF : 1, UT : 2,
      J1 = 0.0 deg, J2 = 0.0 deg 
};
P[149] {
   GP1:
       UF : 6, UT : 5,     CONFIG: 'N U T, 0, 0, 0',
      X = 48.8 mm, Y = -26.2 mm, Z = 96.2 mm,
      W = 0.0 deg, P = 0.0 deg, R = 0.0 deg
   GP2:
       UF : 1, UT : 2,
      J1 = 0.0 deg, J2 = 0.0 deg 
};
P[150] {
   GP1:
       UF : 6, UT : 5,     CONFIG: 'N U T, 0, 0, 0',
      X = -48.8 mm, Y = -26.2 mm, Z = 96.2 mm,
      W = 0.0 deg, P = 0.0 deg, R = 0.0 deg
   GP2:
       UF : 1, UT : 2,
      J1 = 0.0 deg, J2 = 0.0 deg 
};
P[151] {
   GP1:
       UF : 6, UT : 5,     CONFIG: 'N U T, 0, 0, 0',
      X = -48.8 mm, Y = -124.0 mm, Z = 96.2 mm,
      W = 0.0 deg, P = 0.0 deg, R = 0.0 deg
   GP2:
       UF : 1, UT : 2,
      J1 = 0.0 deg, J2 = 0.0 deg 
};
P[152] {
   GP1:
       UF : 6, UT : 5,     CONFIG: 'N U T, 0, 0, 0',
      X = -48.7 mm, Y = -120.0 mm, Z = 96.2 mm,
      W = 0.0 deg, P = 0.0 deg, R = 0.0 deg
   GP2:
       UF : 1, UT : 2,
      J1 = 0.0 deg, J2 = 0.0 deg 
};
P[153] {
   GP1:
       UF : 6, UT : 5,     CONFIG: 'N U T, 0, 0, 0',
      X = -45.4 mm, Y = -124.0 mm, Z = 96.2 mm,
      W = 0.0 deg, P = 0.0 deg, R = 0.0 deg
   GP2:
       UF : 1, UT : 2,
      J1 = 0.0 deg, J2 = 0.0 deg 
};
P[154] {
   GP1:
       UF : 6, UT : 5,     CONFIG: 'N U T, 0, 0, 0',
      X = -40.7 mm, Y = -124.0 mm, Z = 96.2 mm,
      W = 0.0 deg, P = 0.0 deg, R = 0.0 deg
   GP2:
       UF : 1, UT : 2,
      J1 = 0.0 deg, J2 = 0.0 deg 
};
P[155] {
   GP1:
       UF : 6, UT : 5,     CONFIG: 'N U T, 0, 0, 0',
      X = -48.7 mm, Y = -116.0 mm, Z = 96.2 mm,
      W = 0.0 deg, P = 0.0 deg, R = 0.0 deg
   GP2:
       UF : 1, UT : 2,
      J1 = 0.0 deg, J2 = 0.0 deg 
};
P[156] {
   GP1:
       UF : 6, UT : 5,     CONFIG: 'N U T, 0, 0, 0',
      X = -48.7 mm, Y = -111.0 mm, Z = 96.2 mm,
      W = 0.0 deg, P = 0.0 deg, R = 0.0 deg
   GP2:
       UF : 1, UT : 2,
      J1 = 0.0 deg, J2 = 0.0 deg 
};
P[157] {
   GP1:
       UF : 6, UT : 5,     CONFIG: 'N U T, 0, 0, 0',
      X = -36.0 mm, Y = -124.0 mm, Z = 96.2 mm,
      W = 0.0 deg, P = 0.0 deg, R = 0.0 deg
   GP2:
       UF : 1, UT : 2,
      J1 = 0.0 deg, J2 = 0.0 deg 
};
P[158] {
   GP1:
       UF : 6, UT : 5,     CONFIG: 'N U T, 0, 0, 0',
      X = -31.3 mm, Y = -124.0 mm, Z = 96.2 mm,
      W = 0.0 deg, P = 0.0 deg, R = 0.0 deg
   GP2:
       UF : 1, UT : 2,
      J1 = 0.0 deg, J2 = 0.0 deg 
};
P[159] {
   GP1:
       UF : 6, UT : 5,     CONFIG: 'N U T, 0, 0, 0',
      X = -48.7 mm, Y = -106.0 mm, Z = 96.2 mm,
      W = 0.0 deg, P = 0.0 deg, R = 0.0 deg
   GP2:
       UF : 1, UT : 2,
      J1 = 0.0 deg, J2 = 0.0 deg 
};
P[160] {
   GP1:
       UF : 6, UT : 5,     CONFIG: 'N U T, 0, 0, 0',
      X = -48.7 mm, Y = -102.0 mm, Z = 96.2 mm,
      W = 0.0 deg, P = 0.0 deg, R = 0.0 deg
   GP2:
       UF : 1, UT : 2,
      J1 = 0.0 deg, J2 = 0.0 deg 
};
P[161] {
   GP1:
       UF : 6, UT : 5,     CONFIG: 'N U T, 0, 0, 0',
      X = -26.6 mm, Y = -124.0 mm, Z = 96.2 mm,
      W = 0.0 deg, P = 0.0 deg, R = 0.0 deg
   GP2:
       UF : 1, UT : 2,
      J1 = 0.0 deg, J2 = 0.0 deg 
};
P[162] {
   GP1:
       UF : 6, UT : 5,     CONFIG: 'N U T, 0, 0, 0',
      X = -21.9 mm, Y = -124.0 mm, Z = 96.2 mm,
      W = 0.0 deg, P = 0.0 deg, R = 0.0 deg
   GP2:
       UF : 1, UT : 2,
      J1 = 0.0 deg, J2 = 0.0 deg 
};
P[163] {
   GP1:
       UF : 6, UT : 5,     CONFIG: 'N U T, 0, 0, 0',
      X = -48.7 mm, Y = -96.9 mm, Z = 96.2 mm,
      W = 0.0 deg, P = 0.0 deg, R = 0.0 deg
   GP2:
       UF : 1, UT : 2,
      J1 = 0.0 deg, J2 = 0.0 deg 
};
P[164] {
   GP1:
       UF : 6, UT : 5,     CONFIG: 'N U T, 0, 0, 0',
      X = -48.7 mm, Y = -92.2 mm, Z = 96.2 mm,
      W = 0.0 deg, P = 0.0 deg, R = 0.0 deg
   GP2:
       UF : 1, UT : 2,
      J1 = 0.0 deg, J2 = 0.0 deg 
};
P[165] {
   GP1:
       UF : 6, UT : 5,     CONFIG: 'N U T, 0, 0, 0',
      X = -17.2 mm, Y = -124.0 mm, Z = 96.2 mm,
      W = 0.0 deg, P = 0.0 deg, R = 0.0 deg
   GP2:
       UF : 1, UT : 2,
      J1 = 0.0 deg, J2 = 0.0 deg 
};
P[166] {
   GP1:
       UF : 6, UT : 5,     CONFIG: 'N U T, 0, 0, 0',
      X = -12.5 mm, Y = -124.0 mm, Z = 96.2 mm,
      W = 0.0 deg, P = 0.0 deg, R = 0.0 deg
   GP2:
       UF : 1, UT : 2,
      J1 = 0.0 deg, J2 = 0.0 deg 
};
P[167] {
   GP1:
       UF : 6, UT : 5,     CONFIG: 'N U T, 0, 0, 0',
      X = -48.7 mm, Y = -87.5 mm, Z = 96.2 mm,
      W = 0.0 deg, P = 0.0 deg, R = 0.0 deg
   GP2:
       UF : 1, UT : 2,
      J1 = 0.0 deg, J2 = 0.0 deg 
};
P[168] {
   GP1:
       UF : 6, UT : 5,     CONFIG: 'N U T, 0, 0, 0',
      X = -48.7 mm, Y = -82.8 mm, Z = 96.2 mm,
      W = 0.0 deg, P = 0.0 deg, R = 0.0 deg
   GP2:
       UF : 1, UT : 2,
      J1 = 0.0 deg, J2 = 0.0 deg 
};
P[169] {
   GP1:
       UF : 6, UT : 5,     CONFIG: 'N U T, 0, 0, 0',
      X = -7.76 mm, Y = -124.0 mm, Z = 96.2 mm,
      W = 0.0 deg, P = 0.0 deg, R = 0.0 deg
   GP2:
       UF : 1, UT : 2,
      J1 = 0.0 deg, J2 = 0.0 deg 
};
P[170] {
   GP1:
       UF : 6, UT : 5,     CONFIG: 'N U T, 0, 0, 0',
      X = -3.06 mm, Y = -124.0 mm, Z = 96.2 mm,
      W = 0.0 deg, P = 0.0 deg, R = 0.0 deg
   GP2:
       UF : 1, UT : 2,
      J1 = 0.0 deg, J2 = 0.0 deg 
};
P[171] {
   GP1:
       UF : 6, UT : 5,     CONFIG: 'N U T, 0, 0, 0',
      X = -48.7 mm, Y = -78.1 mm, Z = 96.2 mm,
      W = 0.0 deg, P = 0.0 deg, R = 0.0 deg
   GP2:
       UF : 1, UT : 2,
      J1 = 0.0 deg, J2 = 0.0 deg 
};
P[172] {
   GP1:
       UF : 6, UT : 5,     CONFIG: 'N U T, 0, 0, 0',
      X = -48.7 mm, Y = -73.4 mm, Z = 96.2 mm,
      W = 0.0 deg, P = 0.0 deg, R = 0.0 deg
   GP2:
       UF : 1, UT : 2,
      J1 = 0.0 deg, J2 = 0.0 deg 
};
P[173] {
   GP1:
       UF : 6, UT : 5,     CONFIG: 'N U T, 0, 0, 0',
      X = 1.64 mm, Y = -124.0 mm, Z = 96.2 mm,
      W = 0.0 deg, P = 0.0 deg, R = 0.0 deg
   GP2:
       UF : 1, UT : 2,
      J1 = 0.0 deg, J2 = 0.0 deg 
};
P[174] {
   GP1:
       UF : 6, UT : 5,     CONFIG: 'N U T, 0, 0, 0',
      X = 6.34 mm, Y = -124.0 mm, Z = 96.2 mm,
      W = 0.0 deg, P = 0.0 deg, R = 0.0 deg
   GP2:
       UF : 1, UT : 2,
      J1 = 0.0 deg, J2 = 0.0 deg 
};
P[175] {
   GP1:
       UF : 6, UT : 5,     CONFIG: 'N U T, 0, 0, 0',
      X = -48.7 mm, Y = -68.7 mm, Z = 96.2 mm,
      W = 0.0 deg, P = 0.0 deg, R = 0.0 deg
   GP2:
       UF : 1, UT : 2,
      J1 = 0.0 deg, J2 = 0.0 deg 
};
P[176] {
   GP1:
       UF : 6, UT : 5,     CONFIG: 'N U T, 0, 0, 0',
      X = -48.7 mm, Y = -64.0 mm, Z = 96.2 mm,
      W = 0.0 deg, P = 0.0 deg, R = 0.0 deg
   GP2:
       UF : 1, UT : 2,
      J1 = 0.0 deg, J2 = 0.0 deg 
};
P[177] {
   GP1:
       UF : 6, UT : 5,     CONFIG: 'N U T, 0, 0, 0',
      X = 11.0 mm, Y = -124.0 mm, Z = 96.2 mm,
      W = 0.0 deg, P = 0.0 deg, R = 0.0 deg
   GP2:
       UF : 1, UT : 2,
      J1 = 0.0 deg, J2 = 0.0 deg 
};
P[178] {
   GP1:
       UF : 6, UT : 5,     CONFIG: 'N U T, 0, 0, 0',
      X = 15.7 mm, Y = -124.0 mm, Z = 96.2 mm,
      W = 0.0 deg, P = 0.0 deg, R = 0.0 deg
   GP2:
       UF : 1, UT : 2,
      J1 = 0.0 deg, J2 = 0.0 deg 
};
P[179] {
   GP1:
       UF : 6, UT : 5,     CONFIG: 'N U T, 0, 0, 0',
      X = -48.7 mm, Y = -59.3 mm, Z = 96.2 mm,
      W = 0.0 deg, P = 0.0 deg, R = 0.0 deg
   GP2:
       UF : 1, UT : 2,
      J1 = 0.0 deg, J2 = 0.0 deg 
};
P[180] {
   GP1:
       UF : 6, UT : 5,     CONFIG: 'N U T, 0, 0, 0',
      X = -48.7 mm, Y = -54.6 mm, Z = 96.2 mm,
      W = 0.0 deg, P = 0.0 deg, R = 0.0 deg
   GP2:
       UF : 1, UT : 2,
      J1 = 0.0 deg, J2 = 0.0 deg 
};
P[181] {
   GP1:
       UF : 6, UT : 5,     CONFIG: 'N U T, 0, 0, 0',
      X = 20.4 mm, Y = -124.0 mm, Z = 96.2 mm,
      W = 0.0 deg, P = 0.0 deg, R = 0.0 deg
   GP2:
       UF : 1, UT : 2,
      J1 = 0.0 deg, J2 = 0.0 deg 
};
P[182] {
   GP1:
       UF : 6, UT : 5,     CONFIG: 'N U T, 0, 0, 0',
      X = 25.2 mm, Y = -124.0 mm, Z = 96.2 mm,
      W = 0.0 deg, P = 0.0 deg, R = 0.0 deg
   GP2:
       UF : 1, UT : 2,
      J1 = 0.0 deg, J2 = 0.0 deg 
};
P[183] {
   GP1:
       UF : 6, UT : 5,     CONFIG: 'N U T, 0, 0, 0',
      X = -48.7 mm, Y = -49.8 mm, Z = 96.2 mm,
      W = 0.0 deg, P = 0.0 deg, R = 0.0 deg
   GP2:
       UF : 1, UT : 2,
      J1 = 0.0 deg, J2 = 0.0 deg 
};
P[184] {
   GP1:
       UF : 6, UT : 5,     CONFIG: 'N U T, 0, 0, 0',
      X = -48.7 mm, Y = -45.1 mm, Z = 96.2 mm,
      W = 0.0 deg, P = 0.0 deg, R = 0.0 deg
   GP2:
       UF : 1, UT : 2,
      J1 = 0.0 deg, J2 = 0.0 deg 
};
P[185] {
   GP1:
       UF : 6, UT : 5,     CONFIG: 'N U T, 0, 0, 0',
      X = 29.9 mm, Y = -124.0 mm, Z = 96.2 mm,
      W = 0.0 deg, P = 0.0 deg, R = 0.0 deg
   GP2:
       UF : 1, UT : 2,
      J1 = 0.0 deg, J2 = 0.0 deg 
};
P[186] {
   GP1:
       UF : 6, UT : 5,     CONFIG: 'N U T, 0, 0, 0',
      X = 34.6 mm, Y = -124.0 mm, Z = 96.2 mm,
      W = 0.0 deg, P = 0.0 deg, R = 0.0 deg
   GP2:
       UF : 1, UT : 2,
      J1 = 0.0 deg, J2 = 0.0 deg 
};
P[187] {
   GP1:
       UF : 6, UT : 5,     CONFIG: 'N U T, 0, 0, 0',
      X = -48.7 mm, Y = -40.4 mm, Z = 96.2 mm,
      W = 0.0 deg, P = 0.0 deg, R = 0.0 deg
   GP2:
       UF : 1, UT : 2,
      J1 = 0.0 deg, J2 = 0.0 deg 
};
P[188] {
   GP1:
       UF : 6, UT : 5,     CONFIG: 'N U T, 0, 0, 0',
      X = -48.7 mm, Y = -35.7 mm, Z = 96.2 mm,
      W = 0.0 deg, P = 0.0 deg, R = 0.0 deg
   GP2:
       UF : 1, UT : 2,
      J1 = 0.0 deg, J2 = 0.0 deg 
};
P[189] {
   GP1:
       UF : 6, UT : 5,     CONFIG: 'N U T, 0, 0, 0',
      X = 39.3 mm, Y = -124.0 mm, Z = 96.2 mm,
      W = 0.0 deg, P = 0.0 deg, R = 0.0 deg
   GP2:
       UF : 1, UT : 2,
      J1 = 0.0 deg, J2 = 0.0 deg 
};
P[190] {
   GP1:
       UF : 6, UT : 5,     CONFIG: 'N U T, 0, 0, 0',
      X = 44.0 mm, Y = -124.0 mm, Z = 96.2 mm,
      W = 0.0 deg, P = 0.0 deg, R = 0.0 deg
   GP2:
       UF : 1, UT : 2,
      J1 = 0.0 deg, J2 = 0.0 deg 
};
P[191] {
   GP1:
       UF : 6, UT : 5,     CONFIG: 'N U T, 0, 0, 0',
      X = -48.7 mm, Y = -31.0 mm, Z = 96.2 mm,
      W = 0.0 deg, P = 0.0 deg, R = 0.0 deg
   GP2:
       UF : 1, UT : 2,
      J1 = 0.0 deg, J2 = 0.0 deg 
};
P[192] {
   GP1:
       UF : 6, UT : 5,     CONFIG: 'N U T, 0, 0, 0',
      X = -48.7 mm, Y = -26.3 mm, Z = 96.2 mm,
      W = 0.0 deg, P = 0.0 deg, R = 0.0 deg
   GP2:
       UF : 1, UT : 2,
      J1 = 0.0 deg, J2 = 0.0 deg 
};
P[193] {
   GP1:
       UF : 6, UT : 5,     CONFIG: 'N U T, 0, 0, 0',
      X = 48.7 mm, Y = -124.0 mm, Z = 96.2 mm,
      W = 0.0 deg, P = 0.0 deg, R = 0.0 deg
   GP2:
       UF : 1, UT : 2,
      J1 = 0.0 deg, J2 = 0.0 deg 
};
P[194] {
   GP1:
       UF : 6, UT : 5,     CONFIG: 'N U T, 0, 0, 0',
      X = 48.7 mm, Y = -119.0 mm, Z = 96.2 mm,
      W = 0.0 deg, P = 0.0 deg, R = 0.0 deg
   GP2:
       UF : 1, UT : 2,
      J1 = 0.0 deg, J2 = 0.0 deg 
};
P[195] {
   GP1:
       UF : 6, UT : 5,     CONFIG: 'N U T, 0, 0, 0',
      X = -44.0 mm, Y = -26.3 mm, Z = 96.2 mm,
      W = 0.0 deg, P = 0.0 deg, R = 0.0 deg
   GP2:
       UF : 1, UT : 2,
      J1 = 0.0 deg, J2 = 0.0 deg 
};
P[196] {
   GP1:
       UF : 6, UT : 5,     CONFIG: 'N U T, 0, 0, 0',
      X = -39.3 mm, Y = -26.3 mm, Z = 96.2 mm,
      W = 0.0 deg, P = 0.0 deg, R = 0.0 deg
   GP2:
       UF : 1, UT : 2,
      J1 = 0.0 deg, J2 = 0.0 deg 
};
P[197] {
   GP1:
       UF : 6, UT : 5,     CONFIG: 'N U T, 0, 0, 0',
      X = 48.7 mm, Y = -114.0 mm, Z = 96.2 mm,
      W = 0.0 deg, P = 0.0 deg, R = 0.0 deg
   GP2:
       UF : 1, UT : 2,
      J1 = 0.0 deg, J2 = 0.0 deg 
};
P[198] {
   GP1:
       UF : 6, UT : 5,     CONFIG: 'N U T, 0, 0, 0',
      X = 48.7 mm, Y = -110.0 mm, Z = 96.2 mm,
      W = 0.0 deg, P = 0.0 deg, R = 0.0 deg
   GP2:
       UF : 1, UT : 2,
      J1 = 0.0 deg, J2 = 0.0 deg 
};
P[199] {
   GP1:
       UF : 6, UT : 5,     CONFIG: 'N U T, 0, 0, 0',
      X = -34.6 mm, Y = -26.3 mm, Z = 96.2 mm,
      W = 0.0 deg, P = 0.0 deg, R = 0.0 deg
   GP2:
       UF : 1, UT : 2,
      J1 = 0.0 deg, J2 = 0.0 deg 
};
P[200] {
   GP1:
       UF : 6, UT : 5,     CONFIG: 'N U T, 0, 0, 0',
      X = -29.9 mm, Y = -26.3 mm, Z = 96.2 mm,
      W = 0.0 deg, P = 0.0 deg, R = 0.0 deg
   GP2:
       UF : 1, UT : 2,
      J1 = 0.0 deg, J2 = 0.0 deg 
};
P[201] {
   GP1:
       UF : 6, UT : 5,     CONFIG: 'N U T, 0, 0, 0',
      X = 48.7 mm, Y = -105.0 mm, Z = 96.2 mm,
      W = 0.0 deg, P = 0.0 deg, R = 0.0 deg
   GP2:
       UF : 1, UT : 2,
      J1 = 0.0 deg, J2 = 0.0 deg 
};
P[202] {
   GP1:
       UF : 6, UT : 5,     CONFIG: 'N U T, 0, 0, 0',
      X = 48.7 mm, Y = -100.0 mm, Z = 96.2 mm,
      W = 0.0 deg, P = 0.0 deg, R = 0.0 deg
   GP2:
       UF : 1, UT : 2,
      J1 = 0.0 deg, J2 = 0.0 deg 
};
P[203] {
   GP1:
       UF : 6, UT : 5,     CONFIG: 'N U T, 0, 0, 0',
      X = -25.2 mm, Y = -26.3 mm, Z = 96.2 mm,
      W = 0.0 deg, P = 0.0 deg, R = 0.0 deg
   GP2:
       UF : 1, UT : 2,
      J1 = 0.0 deg, J2 = 0.0 deg 
};
P[204] {
   GP1:
       UF : 6, UT : 5,     CONFIG: 'N U T, 0, 0, 0',
      X = -20.4 mm, Y = -26.3 mm, Z = 96.2 mm,
      W = 0.0 deg, P = 0.0 deg, R = 0.0 deg
   GP2:
       UF : 1, UT : 2,
      J1 = 0.0 deg, J2 = 0.0 deg 
};
P[205] {
   GP1:
       UF : 6, UT : 5,     CONFIG: 'N U T, 0, 0, 0',
      X = 48.7 mm, Y = -95.4 mm, Z = 96.2 mm,
      W = 0.0 deg, P = 0.0 deg, R = 0.0 deg
   GP2:
       UF : 1, UT : 2,
      J1 = 0.0 deg, J2 = 0.0 deg 
};
P[206] {
   GP1:
       UF : 6, UT : 5,     CONFIG: 'N U T, 0, 0, 0',
      X = 48.7 mm, Y = -90.7 mm, Z = 96.2 mm,
      W = 0.0 deg, P = 0.0 deg, R = 0.0 deg
   GP2:
       UF : 1, UT : 2,
      J1 = 0.0 deg, J2 = 0.0 deg 
};
P[207] {
   GP1:
       UF : 6, UT : 5,     CONFIG: 'N U T, 0, 0, 0',
      X = -15.7 mm, Y = -26.3 mm, Z = 96.2 mm,
      W = 0.0 deg, P = 0.0 deg, R = 0.0 deg
   GP2:
       UF : 1, UT : 2,
      J1 = 0.0 deg, J2 = 0.0 deg 
};
P[208] {
   GP1:
       UF : 6, UT : 5,     CONFIG: 'N U T, 0, 0, 0',
      X = -11.0 mm, Y = -26.3 mm, Z = 96.2 mm,
      W = 0.0 deg, P = 0.0 deg, R = 0.0 deg
   GP2:
       UF : 1, UT : 2,
      J1 = 0.0 deg, J2 = 0.0 deg 
};
P[209] {
   GP1:
       UF : 6, UT : 5,     CONFIG: 'N U T, 0, 0, 0',
      X = 48.7 mm, Y = -86.0 mm, Z = 96.2 mm,
      W = 0.0 deg, P = 0.0 deg, R = 0.0 deg
   GP2:
       UF : 1, UT : 2,
      J1 = 0.0 deg, J2 = 0.0 deg 
};
P[210] {
   GP1:
       UF : 6, UT : 5,     CONFIG: 'N U T, 0, 0, 0',
      X = 48.7 mm, Y = -81.3 mm, Z = 96.2 mm,
      W = 0.0 deg, P = 0.0 deg, R = 0.0 deg
   GP2:
       UF : 1, UT : 2,
      J1 = 0.0 deg, J2 = 0.0 deg 
};
P[211] {
   GP1:
       UF : 6, UT : 5,     CONFIG: 'N U T, 0, 0, 0',
      X = -6.34 mm, Y = -26.3 mm, Z = 96.2 mm,
      W = 0.0 deg, P = 0.0 deg, R = 0.0 deg
   GP2:
       UF : 1, UT : 2,
      J1 = 0.0 deg, J2 = 0.0 deg 
};
P[212] {
   GP1:
       UF : 6, UT : 5,     CONFIG: 'N U T, 0, 0, 0',
      X = -1.64 mm, Y = -26.3 mm, Z = 96.2 mm,
      W = 0.0 deg, P = 0.0 deg, R = 0.0 deg
   GP2:
       UF : 1, UT : 2,
      J1 = 0.0 deg, J2 = 0.0 deg 
};
P[213] {
   GP1:
       UF : 6, UT : 5,     CONFIG: 'N U T, 0, 0, 0',
      X = 48.7 mm, Y = -76.6 mm, Z = 96.2 mm,
      W = 0.0 deg, P = 0.0 deg, R = 0.0 deg
   GP2:
       UF : 1, UT : 2,
      J1 = 0.0 deg, J2 = 0.0 deg 
};
P[214] {
   GP1:
       UF : 6, UT : 5,     CONFIG: 'N U T, 0, 0, 0',
      X = 48.7 mm, Y = -71.9 mm, Z = 96.2 mm,
      W = 0.0 deg, P = 0.0 deg, R = 0.0 deg
   GP2:
       UF : 1, UT : 2,
      J1 = 0.0 deg, J2 = 0.0 deg 
};
P[215] {
   GP1:
       UF : 6, UT : 5,     CONFIG: 'N U T, 0, 0, 0',
      X = 3.06 mm, Y = -26.3 mm, Z = 96.2 mm,
      W = 0.0 deg, P = 0.0 deg, R = 0.0 deg
   GP2:
       UF : 1, UT : 2,
      J1 = 0.0 deg, J2 = 0.0 deg 
};
P[216] {
   GP1:
       UF : 6, UT : 5,     CONFIG: 'N U T, 0, 0, 0',
      X = 7.76 mm, Y = -26.3 mm, Z = 96.2 mm,
      W = 0.0 deg, P = 0.0 deg, R = 0.0 deg
   GP2:
       UF : 1, UT : 2,
      J1 = 0.0 deg, J2 = 0.0 deg 
};
P[217] {
   GP1:
       UF : 6, UT : 5,     CONFIG: 'N U T, 0, 0, 0',
      X = 48.7 mm, Y = -67.2 mm, Z = 96.2 mm,
      W = 0.0 deg, P = 0.0 deg, R = 0.0 deg
   GP2:
       UF : 1, UT : 2,
      J1 = 0.0 deg, J2 = 0.0 deg 
};
P[218] {
   GP1:
       UF : 6, UT : 5,     CONFIG: 'N U T, 0, 0, 0',
      X = 48.7 mm, Y = -62.5 mm, Z = 96.2 mm,
      W = 0.0 deg, P = 0.0 deg, R = 0.0 deg
   GP2:
       UF : 1, UT : 2,
      J1 = 0.0 deg, J2 = 0.0 deg 
};
P[219] {
   GP1:
       UF : 6, UT : 5,     CONFIG: 'N U T, 0, 0, 0',
      X = 12.5 mm, Y = -26.3 mm, Z = 96.2 mm,
      W = 0.0 deg, P = 0.0 deg, R = 0.0 deg
   GP2:
       UF : 1, UT : 2,
      J1 = 0.0 deg, J2 = 0.0 deg 
};
P[220] {
   GP1:
       UF : 6, UT : 5,     CONFIG: 'N U T, 0, 0, 0',
      X = 17.2 mm, Y = -26.3 mm, Z = 96.2 mm,
      W = 0.0 deg, P = 0.0 deg, R = 0.0 deg
   GP2:
       UF : 1, UT : 2,
      J1 = 0.0 deg, J2 = 0.0 deg 
};
P[221] {
   GP1:
       UF : 6, UT : 5,     CONFIG: 'N U T, 0, 0, 0',
      X = 48.7 mm, Y = -57.8 mm, Z = 96.2 mm,
      W = 0.0 deg, P = 0.0 deg, R = 0.0 deg
   GP2:
       UF : 1, UT : 2,
      J1 = 0.0 deg, J2 = 0.0 deg 
};
P[222] {
   GP1:
       UF : 6, UT : 5,     CONFIG: 'N U T, 0, 0, 0',
      X = 48.7 mm, Y = -53.1 mm, Z = 96.2 mm,
      W = 0.0 deg, P = 0.0 deg, R = 0.0 deg
   GP2:
       UF : 1, UT : 2,
      J1 = 0.0 deg, J2 = 0.0 deg 
};
P[223] {
   GP1:
       UF : 6, UT : 5,     CONFIG: 'N U T, 0, 0, 0',
      X = 21.9 mm, Y = -26.3 mm, Z = 96.2 mm,
      W = 0.0 deg, P = 0.0 deg, R = 0.0 deg
   GP2:
       UF : 1, UT : 2,
      J1 = 0.0 deg, J2 = 0.0 deg 
};
P[224] {
   GP1:
       UF : 6, UT : 5,     CONFIG: 'N U T, 0, 0, 0',
      X = 26.6 mm, Y = -26.3 mm, Z = 96.2 mm,
      W = 0.0 deg, P = 0.0 deg, R = 0.0 deg
   GP2:
       UF : 1, UT : 2,
      J1 = 0.0 deg, J2 = 0.0 deg 
};
P[225] {
   GP1:
       UF : 6, UT : 5,     CONFIG: 'N U T, 0, 0, 0',
      X = 48.7 mm, Y = -48.4 mm, Z = 96.2 mm,
      W = 0.0 deg, P = 0.0 deg, R = 0.0 deg
   GP2:
       UF : 1, UT : 2,
      J1 = 0.0 deg, J2 = 0.0 deg 
};
P[226] {
   GP1:
       UF : 6, UT : 5,     CONFIG: 'N U T, 0, 0, 0',
      X = 48.7 mm, Y = -43.7 mm, Z = 96.2 mm,
      W = 0.0 deg, P = 0.0 deg, R = 0.0 deg
   GP2:
       UF : 1, UT : 2,
      J1 = 0.0 deg, J2 = 0.0 deg 
};
P[227] {
   GP1:
       UF : 6, UT : 5,     CONFIG: 'N U T, 0, 0, 0',
      X = 31.3 mm, Y = -26.3 mm, Z = 96.2 mm,
      W = 0.0 deg, P = 0.0 deg, R = 0.0 deg
   GP2:
       UF : 1, UT : 2,
      J1 = 0.0 deg, J2 = 0.0 deg 
};
P[228] {
   GP1:
       UF : 6, UT : 5,     CONFIG: 'N U T, 0, 0, 0',
      X = 36.0 mm, Y = -26.3 mm, Z = 96.2 mm,
      W = 0.0 deg, P = 0.0 deg, R = 0.0 deg
   GP2:
       UF : 1, UT : 2,
      J1 = 0.0 deg, J2 = 0.0 deg 
};
P[229] {
   GP1:
       UF : 6, UT : 5,     CONFIG: 'N U T, 0, 0, 0',
      X = 48.7 mm, Y = -39.0 mm, Z = 96.2 mm,
      W = 0.0 deg, P = 0.0 deg, R = 0.0 deg
   GP2:
       UF : 1, UT : 2,
      J1 = 0.0 deg, J2 = 0.0 deg 
};
P[230] {
   GP1:
       UF : 6, UT : 5,     CONFIG: 'N U T, 0, 0, 0',
      X = 48.7 mm, Y = -34.3 mm, Z = 96.2 mm,
      W = 0.0 deg, P = 0.0 deg, R = 0.0 deg
   GP2:
       UF : 1, UT : 2,
      J1 = 0.0 deg, J2 = 0.0 deg 
};
P[231] {
   GP1:
       UF : 6, UT : 5,     CONFIG: 'N U T, 0, 0, 0',
      X = 40.7 mm, Y = -26.3 mm, Z = 96.2 mm,
      W = 0.0 deg, P = 0.0 deg, R = 0.0 deg
   GP2:
       UF : 1, UT : 2,
      J1 = 0.0 deg, J2 = 0.0 deg 
};
P[232] {
   GP1:
       UF : 6, UT : 5,     CONFIG: 'N U T, 0, 0, 0',
      X = 45.4 mm, Y = -26.3 mm, Z = 96.2 mm,
      W = 0.0 deg, P = 0.0 deg, R = 0.0 deg
   GP2:
       UF : 1, UT : 2,
      J1 = 0.0 deg, J2 = 0.0 deg 
};
P[233] {
   GP1:
       UF : 6, UT : 5,     CONFIG: 'N U T, 0, 0, 0',
      X = 48.7 mm, Y = -29.6 mm, Z = 96.2 mm,
      W = 0.0 deg, P = 0.0 deg, R = 0.0 deg
   GP2:
       UF : 1, UT : 2,
      J1 = 0.0 deg, J2 = 0.0 deg 
};
P[234] {
   GP1:
       UF : 6, UT : 5,     CONFIG: 'N U T, 0, 0, 0',
      X = 48.7 mm, Y = -29.6 mm, Z = 99.5 mm,
      W = 0.0 deg, P = 0.0 deg, R = 0.0 deg
   GP2:
       UF : 1, UT : 2,
      J1 = 0.0 deg, J2 = 0.0 deg 
};
P[235] {
   GP1:
       UF : 6, UT : 5,     CONFIG: 'N U T, 0, 0, 0',
      X = -48.8 mm, Y = -26.2 mm, Z = 99.5 mm,
      W = 0.0 deg, P = 0.0 deg, R = 0.0 deg
   GP2:
       UF : 1, UT : 2,
      J1 = 0.0 deg, J2 = 0.0 deg 
};
P[236] {
   GP1:
       UF : 6, UT : 5,     CONFIG: 'N U T, 0, 0, 0',
      X = -48.8 mm, Y = -124.0 mm, Z = 99.5 mm,
      W = 0.0 deg, P = 0.0 deg, R = 0.0 deg
   GP2:
       UF : 1, UT : 2,
      J1 = 0.0 deg, J2 = 0.0 deg 
};
P[237] {
   GP1:
       UF : 6, UT : 5,     CONFIG: 'N U T, 0, 0, 0',
      X = 48.8 mm, Y = -124.0 mm, Z = 99.5 mm,
      W = 0.0 deg, P = 0.0 deg, R = 0.0 deg
   GP2:
       UF : 1, UT : 2,
      J1 = 0.0 deg, J2 = 0.0 deg 
};
P[238] {
   GP1:
       UF : 6, UT : 5,     CONFIG: 'N U T, 0, 0, 0',
      X = 48.8 mm, Y = -26.2 mm, Z = 99.5 mm,
      W = 0.0 deg, P = 0.0 deg, R = 0.0 deg
   GP2:
       UF : 1, UT : 2,
      J1 = 0.0 deg, J2 = 0.0 deg 
};
P[239] {
   GP1:
       UF : 6, UT : 5,     CONFIG: 'N U T, 0, 0, 0',
      X = -48.8 mm, Y = -26.2 mm, Z = 99.5 mm,
      W = 0.0 deg, P = 0.0 deg, R = 0.0 deg
   GP2:
       UF : 1, UT : 2,
      J1 = 0.0 deg, J2 = 0.0 deg 
};
P[240] {
   GP1:
       UF : 6, UT : 5,     CONFIG: 'N U T, 0, 0, 0',
      X = -45.4 mm, Y = -26.3 mm, Z = 99.5 mm,
      W = 0.0 deg, P = 0.0 deg, R = 0.0 deg
   GP2:
       UF : 1, UT : 2,
      J1 = 0.0 deg, J2 = 0.0 deg 
};
P[241] {
   GP1:
       UF : 6, UT : 5,     CONFIG: 'N U T, 0, 0, 0',
      X = -48.7 mm, Y = -29.6 mm, Z = 99.5 mm,
      W = 0.0 deg, P = 0.0 deg, R = 0.0 deg
   GP2:
       UF : 1, UT : 2,
      J1 = 0.0 deg, J2 = 0.0 deg 
};
P[242] {
   GP1:
       UF : 6, UT : 5,     CONFIG: 'N U T, 0, 0, 0',
      X = -48.7 mm, Y = -34.3 mm, Z = 99.5 mm,
      W = 0.0 deg, P = 0.0 deg, R = 0.0 deg
   GP2:
       UF : 1, UT : 2,
      J1 = 0.0 deg, J2 = 0.0 deg 
};
P[243] {
   GP1:
       UF : 6, UT : 5,     CONFIG: 'N U T, 0, 0, 0',
      X = -40.7 mm, Y = -26.3 mm, Z = 99.5 mm,
      W = 0.0 deg, P = 0.0 deg, R = 0.0 deg
   GP2:
       UF : 1, UT : 2,
      J1 = 0.0 deg, J2 = 0.0 deg 
};
P[244] {
   GP1:
       UF : 6, UT : 5,     CONFIG: 'N U T, 0, 0, 0',
      X = -36.0 mm, Y = -26.3 mm, Z = 99.5 mm,
      W = 0.0 deg, P = 0.0 deg, R = 0.0 deg
   GP2:
       UF : 1, UT : 2,
      J1 = 0.0 deg, J2 = 0.0 deg 
};
P[245] {
   GP1:
       UF : 6, UT : 5,     CONFIG: 'N U T, 0, 0, 0',
      X = -48.7 mm, Y = -39.0 mm, Z = 99.5 mm,
      W = 0.0 deg, P = 0.0 deg, R = 0.0 deg
   GP2:
       UF : 1, UT : 2,
      J1 = 0.0 deg, J2 = 0.0 deg 
};
P[246] {
   GP1:
       UF : 6, UT : 5,     CONFIG: 'N U T, 0, 0, 0',
      X = -48.7 mm, Y = -43.7 mm, Z = 99.5 mm,
      W = 0.0 deg, P = 0.0 deg, R = 0.0 deg
   GP2:
       UF : 1, UT : 2,
      J1 = 0.0 deg, J2 = 0.0 deg 
};
P[247] {
   GP1:
